; generated by Slic3r Prusa Edition 1.39.1-prusa3d-win64 on 2018-05-11 at 19:57:34

; 

; external perimeters extrusion width = 0.45mm
; perimeters extrusion width = 0.45mm
; infill extrusion width = 0.45mm
; solid infill extrusion width = 0.45mm
; top infill extrusion width = 0.45mm
; support material extrusion width = 0.35mm
; first layer extrusion width = 0.42mm

M107
M115 U3.1.0 ; tell printer latest fw version
M201 X9000 Y9000 Z500 E10000 ; sets maximum accelerations, mm/sec^2
M203 X500 Y500 Z12 E120 ; sets maximum feedrates, mm/sec
M204 S1500 T1500 ; sets acceleration (S) and retract acceleration (T)
M205 X10 Y10 Z0.2 E2.5 ; sets the jerk limits, mm/sec
M205 S0 T0 ; sets the minimum extruding and travel feed rate, mm/sec
M83  ; extruder relative mode
M104 S230 ; set extruder temp
M140 S85 ; set bed temp
M190 S85 ; wait for bed temp
M109 S230 ; wait for extruder temp
G28 W ; home all without mesh bed level
G80 ; mesh bed leveling
G1 Y-3.0 F1000.0 ; go outside print area
G92 E0.0
G1 X60.0 E9.0  F1000.0 ; intro line
G1 X100.0 E12.5  F1000.0 ; intro line
G92 E0.0
M900 K45; Filament gcode
G21 ; set units to millimeters
G90 ; use absolute coordinates
M83 ; use relative distances for extrusion
;BEFORE_LAYER_CHANGE
;0.2


G1 E-0.80000 F2100.00000
G1 Z0.600 F7200.000
;AFTER_LAYER_CHANGE
;0.2
G1 X89.867 Y84.302 F7200.000
G1 Z0.200 F7200.000
G1 E0.80000 F2100.00000
M204 S1000
G1 F1800
G1 X90.651 Y83.667 E0.03164
G1 X105.867 Y74.565 E0.55594
G1 X106.643 Y74.270 E0.02602
G1 X142.537 Y74.228 E1.12543
G1 X143.136 Y74.305 E0.01894
G1 X143.696 Y74.531 E0.01894
G1 X159.339 Y83.671 E0.56806
G1 X159.837 Y84.012 E0.01893
G1 X160.191 Y84.373 E0.01585
G1 X160.600 Y85.007 E0.02366
G1 X160.810 Y85.534 E0.01778
G1 X160.934 Y86.419 E0.02801
G1 X160.934 Y129.455 E1.34939
G1 X160.727 Y134.015 E0.14312
G1 X160.540 Y134.677 E0.02154
G1 X160.170 Y135.260 E0.02166
G1 X159.801 Y135.605 E0.01585
G1 X159.363 Y135.866 E0.01597
G1 X158.880 Y136.028 E0.01597
G1 X158.378 Y136.084 E0.01585
G1 X91.231 Y136.084 E2.10534
G1 X90.415 Y135.932 E0.02602
G1 X89.698 Y135.507 E0.02614
G1 X89.143 Y134.807 E0.02802
G1 X88.886 Y133.955 E0.02790
G1 X88.873 Y127.682 E0.19669
G1 X89.066 Y86.358 E1.29569
G1 X89.122 Y85.838 E0.01640
G1 X89.307 Y85.199 E0.02086
G1 X89.835 Y84.353 E0.03125
G1 F5760
G1 X90.651 Y83.667 E-0.36926
G1 F5760
G1 X91.619 Y83.088 E-0.39074
G1 E-0.04000 F2100.00000
G1 Z0.800 F7200.000
G1 X107.087 Y85.722 F7200.000
G1 Z0.200 F7200.000
G1 E0.80000 F2100.00000
G1 F1800
G1 X107.087 Y76.605 E0.28587
G1 X107.841 Y76.605 E0.02365
G1 X107.841 Y85.552 E0.28055
G1 X108.596 Y85.552 E0.02365
G1 X108.596 Y76.605 E0.28055
G1 X109.350 Y76.605 E0.02365
G1 X109.350 Y85.552 E0.28055
G1 X110.104 Y85.552 E0.02365
G1 X110.104 Y76.605 E0.28055
G1 X110.858 Y76.605 E0.02365
G1 X110.858 Y85.552 E0.28055
G1 X111.612 Y85.552 E0.02365
G1 X111.612 Y76.605 E0.28055
G1 X112.366 Y76.605 E0.02365
G1 X112.366 Y85.552 E0.28055
G1 X113.121 Y85.552 E0.02365
G1 X113.121 Y76.605 E0.28055
G1 X113.875 Y76.605 E0.02365
G1 X113.875 Y85.552 E0.28055
G1 X114.629 Y85.552 E0.02365
G1 X114.629 Y76.605 E0.28055
G1 X115.383 Y76.605 E0.02365
G1 X115.383 Y79.793 E0.09998
G1 X115.838 Y79.341 E0.02012
G1 X115.971 Y79.240 E0.00524
G1 X116.137 Y79.165 E0.00572
G1 X116.137 Y76.605 E0.08026
G1 X116.891 Y76.605 E0.02365
G1 X116.891 Y79.117 E0.07876
G1 X117.646 Y79.116 E0.02365
G1 X117.646 Y76.605 E0.07876
G1 X118.063 Y76.605 E0.01309
G1 X118.400 Y77.597 E0.03284
G1 X118.400 Y79.286 E0.05298
G1 F5760
G1 X118.400 Y77.597 E-0.58520
G1 F5760
G1 X118.237 Y77.119 E-0.17480
G1 E-0.04000 F2100.00000
G1 Z0.800 F7200.000
G1 X116.891 Y82.877 F7200.000
G1 Z0.200 F7200.000
G1 E0.80000 F2100.00000
G1 F1800
G1 X116.891 Y81.571 E0.04096
G1 X116.750 Y81.493 E0.00506
G1 X116.585 Y81.451 E0.00534
G1 X116.415 Y81.451 E0.00534
G1 X116.250 Y81.493 E0.00534
G1 X116.137 Y81.555 E0.00403
G1 X116.137 Y82.889 E0.04181
G1 F5760
G1 X116.137 Y81.555 E-0.46190
G1 F5760
G1 X116.250 Y81.493 E-0.04452
G1 F5760
G1 X116.415 Y81.451 E-0.05899
G1 F5760
G1 X116.585 Y81.451 E-0.05898
G1 F5760
G1 X116.750 Y81.493 E-0.05898
G1 F5760
G1 X116.891 Y81.571 E-0.05585
G1 F5760
G1 X116.891 Y81.631 E-0.02078
G1 E-0.04000 F2100.00000
G1 Z0.800 F7200.000
G1 X131.220 Y79.286 F7200.000
G1 Z0.200 F7200.000
G1 E0.80000 F2100.00000
G1 F1800
G1 X131.220 Y78.715 E0.01792
G1 X131.940 Y76.605 E0.06990
G1 X131.975 Y76.605 E0.00109
G1 X131.975 Y79.116 E0.07876
G1 X132.729 Y79.116 E0.02365
G1 X132.729 Y76.605 E0.07876
G1 X133.483 Y76.605 E0.02365
G1 X133.483 Y79.116 E0.07876
G1 X133.639 Y79.120 E0.00490
G1 X133.852 Y79.160 E0.00678
G1 X134.029 Y79.240 E0.00609
G1 X134.237 Y79.414 E0.00850
G1 X134.237 Y76.605 E0.08807
G1 X134.991 Y76.605 E0.02365
G1 X134.991 Y80.172 E0.11184
G1 X135.099 Y80.321 E0.00578
G1 X135.163 Y80.468 E0.00501
G1 X135.209 Y80.733 E0.00845
G1 X135.209 Y85.213 E0.14045
G1 X135.238 Y85.377 E0.00523
G1 X135.338 Y85.544 E0.00612
G1 X135.745 Y85.552 E0.01278
G1 X135.745 Y76.605 E0.28055
G1 X136.500 Y76.605 E0.02365
G1 X136.500 Y85.552 E0.28055
G1 X137.254 Y85.552 E0.02365
G1 X137.254 Y76.605 E0.28055
G1 X138.008 Y76.605 E0.02365
G1 X138.008 Y85.552 E0.28055
G1 X138.762 Y85.552 E0.02365
G1 X138.762 Y76.605 E0.28055
G1 X139.516 Y76.605 E0.02365
G1 X139.516 Y85.552 E0.28055
G1 X140.270 Y85.552 E0.02365
G1 X140.270 Y76.605 E0.28055
G1 X141.024 Y76.605 E0.02365
G1 X141.024 Y85.552 E0.28055
G1 X141.779 Y85.552 E0.02365
G1 X141.779 Y76.605 E0.28055
G1 X142.533 Y76.605 E0.02365
G1 X142.533 Y85.722 E0.28587
G1 F5760
G1 X142.533 Y83.528 E-0.76000
G1 E-0.04000 F2100.00000
G1 Z0.800 F7200.000
G1 X133.483 Y82.973 F7200.000
G1 Z0.200 F7200.000
G1 E0.80000 F2100.00000
G1 F1800
G1 X133.483 Y81.281 E0.05305
G1 F5760
G1 X133.483 Y82.973 E-0.58603
G1 E-0.21397 F2100.00000
G1 Z0.800 F7200.000
G1 X158.370 Y133.707 F7200.000
G1 Z0.200 F7200.000
G1 E0.80000 F2100.00000
G1 F1800
G1 X158.370 Y130.049 E0.11468
G1 X158.280 Y130.122 E0.00362
G1 X157.963 Y130.268 E0.01095
G1 X157.758 Y130.315 E0.00661
G1 X157.616 Y130.298 E0.00448
G1 X157.616 Y133.537 E0.10155
G1 X156.862 Y133.537 E0.02365
G1 X156.862 Y130.302 E0.10144
G1 X156.108 Y130.305 E0.02365
G1 X156.108 Y133.537 E0.10133
G1 X155.354 Y133.537 E0.02365
G1 X155.354 Y130.309 E0.10122
G1 X154.599 Y130.311 E0.02365
G1 X154.599 Y133.537 E0.10115
G1 X153.845 Y133.537 E0.02365
G1 X153.845 Y130.310 E0.10119
G1 X153.091 Y130.308 E0.02365
G1 X153.091 Y133.537 E0.10123
G1 X152.337 Y133.537 E0.02365
G1 X152.337 Y92.641 E1.28228
G1 X152.274 Y92.458 E0.00607
G1 X152.167 Y92.272 E0.00671
G1 X152.026 Y92.111 E0.00671
G1 X151.858 Y91.978 E0.00671
G1 X151.583 Y91.855 E0.00947
G1 X151.583 Y133.537 E1.30690
G1 X150.829 Y133.537 E0.02365
G1 X150.829 Y91.798 E1.30871
G1 X150.074 Y91.798 E0.02365
G1 X150.074 Y133.537 E1.30871
G1 X149.320 Y133.537 E0.02365
G1 X149.320 Y91.798 E1.30871
G1 X148.566 Y91.798 E0.02365
G1 X148.566 Y133.537 E1.30871
G1 X148.543 Y133.537 E0.00073
G1 X148.543 Y96.452 E1.16277
G1 X147.812 Y96.452 E0.02291
G1 X147.812 Y91.798 E0.14594
G1 X147.058 Y91.798 E0.02365
G1 X147.058 Y96.452 E0.14594
G1 X146.304 Y96.452 E0.02365
G1 X146.304 Y91.798 E0.14594
G1 X145.549 Y91.798 E0.02365
G1 X145.549 Y96.452 E0.14594
G1 X144.795 Y96.452 E0.02365
G1 X144.795 Y91.798 E0.14594
G1 X144.041 Y91.798 E0.02365
G1 X144.041 Y96.452 E0.14594
G1 X143.287 Y96.452 E0.02365
G1 X143.287 Y91.798 E0.14594
G1 X142.533 Y91.798 E0.02365
G1 X142.533 Y96.452 E0.14594
G1 X141.779 Y96.452 E0.02365
G1 X141.779 Y91.798 E0.14594
G1 X141.024 Y91.798 E0.02365
G1 X141.024 Y96.452 E0.14594
G1 X140.270 Y96.452 E0.02365
G1 X140.270 Y91.798 E0.14594
G1 X139.516 Y91.798 E0.02365
G1 X139.516 Y96.452 E0.14594
G1 X138.762 Y96.452 E0.02365
G1 X138.762 Y91.798 E0.14594
G1 X138.008 Y91.798 E0.02365
G1 X138.008 Y96.452 E0.14594
G1 X137.254 Y96.452 E0.02365
G1 X137.254 Y91.798 E0.14594
G1 X136.500 Y91.798 E0.02365
G1 X136.500 Y96.452 E0.14594
G1 X135.745 Y96.452 E0.02365
G1 X135.745 Y91.798 E0.14594
G1 X134.991 Y91.798 E0.02365
G1 X134.991 Y96.452 E0.14594
G1 X134.237 Y96.452 E0.02365
G1 X134.237 Y91.798 E0.14594
G1 X133.483 Y91.798 E0.02365
G1 X133.483 Y96.452 E0.14594
G1 X132.729 Y96.452 E0.02365
G1 X132.729 Y91.798 E0.14594
G1 X131.975 Y91.798 E0.02365
G1 X131.975 Y96.452 E0.14594
G1 X131.220 Y96.452 E0.02365
G1 X131.220 Y91.798 E0.14594
G1 X130.466 Y91.798 E0.02365
G1 X130.466 Y96.452 E0.14594
G1 X129.712 Y96.452 E0.02365
G1 X129.712 Y91.798 E0.14594
G1 X128.958 Y91.798 E0.02365
G1 X128.958 Y96.452 E0.14594
G1 X128.204 Y96.452 E0.02365
G1 X128.204 Y91.798 E0.14594
G1 X127.450 Y91.798 E0.02365
G1 X127.450 Y96.452 E0.14594
G1 X126.695 Y96.452 E0.02365
G1 X126.695 Y91.798 E0.14594
G1 X125.941 Y91.798 E0.02365
G1 X125.941 Y96.452 E0.14594
G1 X125.187 Y96.452 E0.02365
G1 X125.187 Y91.798 E0.14594
G1 X124.433 Y91.798 E0.02365
G1 X124.433 Y96.452 E0.14594
G1 X123.679 Y96.452 E0.02365
G1 X123.679 Y91.798 E0.14594
G1 X122.925 Y91.798 E0.02365
G1 X122.925 Y96.452 E0.14594
G1 X122.171 Y96.452 E0.02365
G1 X122.171 Y91.798 E0.14594
G1 X121.416 Y91.798 E0.02365
G1 X121.416 Y96.452 E0.14594
G1 X120.662 Y96.452 E0.02365
G1 X120.662 Y91.798 E0.14594
G1 X119.908 Y91.798 E0.02365
G1 X119.908 Y96.452 E0.14594
G1 X119.154 Y96.452 E0.02365
G1 X119.154 Y91.798 E0.14594
G1 X118.400 Y91.798 E0.02365
G1 X118.400 Y96.452 E0.14594
G1 X117.646 Y96.452 E0.02365
G1 X117.646 Y91.798 E0.14594
G1 X116.891 Y91.798 E0.02365
G1 X116.891 Y96.452 E0.14594
G1 X116.137 Y96.452 E0.02365
G1 X116.137 Y91.798 E0.14594
G1 X115.383 Y91.798 E0.02365
G1 X115.383 Y96.452 E0.14594
G1 X114.629 Y96.452 E0.02365
G1 X114.629 Y91.798 E0.14594
G1 X113.875 Y91.798 E0.02365
G1 X113.875 Y96.452 E0.14594
G1 X113.121 Y96.452 E0.02365
G1 X113.121 Y91.798 E0.14594
G1 X112.366 Y91.798 E0.02365
G1 X112.366 Y96.452 E0.14594
G1 X111.612 Y96.452 E0.02365
G1 X111.612 Y91.798 E0.14594
G1 X110.858 Y91.798 E0.02365
G1 X110.858 Y96.452 E0.14594
G1 X110.104 Y96.452 E0.02365
G1 X110.104 Y91.798 E0.14594
G1 X109.350 Y91.798 E0.02365
G1 X109.350 Y96.452 E0.14594
G1 X108.596 Y96.452 E0.02365
G1 X108.596 Y91.798 E0.14594
G1 X107.841 Y91.798 E0.02365
G1 X107.841 Y96.452 E0.14594
G1 X107.087 Y96.452 E0.02365
G1 X107.087 Y91.798 E0.14594
G1 X106.333 Y91.798 E0.02365
G1 X106.333 Y96.452 E0.14594
G1 X105.579 Y96.452 E0.02365
G1 X105.579 Y91.798 E0.14594
G1 X104.825 Y91.798 E0.02365
G1 X104.825 Y96.452 E0.14594
G1 X104.071 Y96.452 E0.02365
G1 X104.071 Y91.798 E0.14594
G1 X103.317 Y91.798 E0.02365
G1 X103.317 Y96.452 E0.14594
G1 X102.562 Y96.452 E0.02365
G1 X102.562 Y91.798 E0.14594
G1 X101.808 Y91.798 E0.02365
G1 X101.808 Y96.452 E0.14594
G1 X101.174 Y96.452 E0.01990
G1 X101.174 Y133.537 E1.16277
G1 X101.054 Y133.537 E0.00375
G1 X101.054 Y91.798 E1.30871
G1 X100.300 Y91.798 E0.02365
G1 X100.300 Y133.537 E1.30871
G1 X99.546 Y133.537 E0.02365
G1 X99.546 Y91.798 E1.30871
G1 X98.792 Y91.798 E0.02365
G1 X98.792 Y133.537 E1.30871
G1 X98.037 Y133.537 E0.02365
G1 X98.037 Y92.060 E1.30047
G1 X97.833 Y92.272 E0.00922
G1 X97.726 Y92.458 E0.00671
G1 X97.656 Y92.660 E0.00671
G1 X97.623 Y92.930 E0.00855
G1 X97.633 Y130.035 E1.16340
G1 X97.375 Y130.301 E0.01161
G1 X97.283 Y130.305 E0.00287
G1 X97.283 Y133.537 E0.10135
G1 X96.529 Y133.537 E0.02365
G1 X96.529 Y130.311 E0.10114
G1 X95.775 Y130.311 E0.02365
G1 X95.775 Y133.537 E0.10114
G1 X95.021 Y133.537 E0.02365
G1 X95.021 Y130.310 E0.10117
G1 X94.267 Y130.307 E0.02365
G1 X94.267 Y133.537 E0.10128
G1 X93.512 Y133.537 E0.02365
G1 X93.512 Y130.303 E0.10139
G1 X92.758 Y130.300 E0.02365
G1 X92.758 Y133.537 E0.10150
G1 X92.004 Y133.537 E0.02365
G1 X92.004 Y130.253 E0.10296
G1 X91.720 Y130.122 E0.00982
G1 X91.630 Y130.049 E0.00363
G1 X91.502 Y129.877 E0.00671
G1 X91.413 Y129.637 E0.00805
G1 X91.377 Y129.448 E0.00601
G1 X91.377 Y127.690 E0.05514
G1 X91.250 Y127.689 E0.00399
G1 X91.250 Y133.707 E0.18867
G1 F5760
G1 X91.250 Y131.512 E-0.76000
G1 E-0.04000 F2100.00000
G1 Z0.800 F7200.000
G1 X92.423 Y129.260 F7200.000
G1 Z0.200 F7200.000
G1 E0.80000 F2100.00000
G1 F1800
G1 X92.423 Y86.598 E1.33765
G1 X114.964 Y86.598 E0.70677
G1 X115.248 Y86.483 E0.00958
G1 X115.478 Y86.307 E0.00909
G1 X115.641 Y86.076 E0.00887
G1 X115.767 Y85.795 E0.00966
G1 X115.837 Y85.417 E0.01205
G1 X115.837 Y83.712 E0.05346
G1 X116.069 Y83.804 E0.00782
G1 X116.500 Y83.858 E0.01362
G1 X116.931 Y83.804 E0.01362
G1 X117.335 Y83.644 E0.01362
G1 X117.687 Y83.389 E0.01362
G1 X117.963 Y83.054 E0.01362
G1 X118.148 Y82.661 E0.01362
G1 X118.230 Y82.234 E0.01362
G1 X118.203 Y81.800 E0.01362
G1 X118.068 Y81.387 E0.01362
G1 X117.836 Y81.020 E0.01362
G1 X117.519 Y80.723 E0.01362
G1 X117.138 Y80.513 E0.01362
G1 X116.717 Y80.405 E0.01362
G1 X116.239 Y80.417 E0.01501
G1 X116.493 Y80.162 E0.01129
G1 X133.507 Y80.162 E0.53345
G1 X133.761 Y80.417 E0.01129
G1 X133.283 Y80.405 E0.01501
G1 X132.862 Y80.513 E0.01362
G1 X132.481 Y80.723 E0.01362
G1 X132.164 Y81.020 E0.01362
G1 X131.932 Y81.387 E0.01362
G1 X131.797 Y81.800 E0.01362
G1 X131.770 Y82.234 E0.01362
G1 X131.852 Y82.661 E0.01362
G1 X132.037 Y83.054 E0.01362
G1 X132.313 Y83.389 E0.01362
G1 X132.665 Y83.644 E0.01362
G1 X133.069 Y83.804 E0.01362
G1 X133.500 Y83.858 E0.01362
G1 X133.931 Y83.804 E0.01362
G1 X134.163 Y83.712 E0.00782
G1 X134.163 Y85.294 E0.04960
G1 X134.246 Y85.729 E0.01387
G1 X134.390 Y86.023 E0.01027
G1 X134.567 Y86.271 E0.00954
G1 X134.829 Y86.487 E0.01066
G1 X135.152 Y86.598 E0.01070
G1 X157.577 Y86.590 E0.70313
G1 X157.577 Y129.260 E1.33790
G1 X153.413 Y129.262 E0.13057
G1 X153.421 Y92.808 E1.14300
G1 X153.364 Y92.412 E0.01253
G1 X153.229 Y92.021 E0.01297
G1 X153.022 Y91.663 E0.01297
G1 X152.751 Y91.350 E0.01297
G1 X152.426 Y91.095 E0.01297
G1 X152.059 Y90.905 E0.01297
G1 X151.662 Y90.789 E0.01297
G1 X151.278 Y90.752 E0.01209
G1 X98.722 Y90.752 E1.64785
G1 X98.338 Y90.789 E0.01209
G1 X97.941 Y90.905 E0.01297
G1 X97.574 Y91.095 E0.01297
G1 X97.249 Y91.350 E0.01297
G1 X96.978 Y91.663 E0.01297
G1 X96.771 Y92.021 E0.01297
G1 X96.633 Y92.419 E0.01319
G1 X96.577 Y92.890 E0.01488
G1 X96.587 Y129.262 E1.14042
G1 X92.483 Y129.260 E0.12869
G1 X92.099 Y129.559 F7200.000
G1 F1800
G1 X92.046 Y129.397 E0.00535
G1 X92.046 Y86.427 E1.34730
G1 X92.047 Y86.377 E0.00157
G1 X92.101 Y86.276 E0.00358
G1 X92.202 Y86.222 E0.00358
G1 X92.252 Y86.221 E0.00157
G1 X114.891 Y86.221 E0.70984
G1 X115.059 Y86.153 E0.00568
G1 X115.203 Y86.042 E0.00570
G1 X115.312 Y85.888 E0.00592
G1 X115.404 Y85.682 E0.00708
G1 X115.460 Y85.382 E0.00956
G1 X115.460 Y82.974 E0.07551
G1 X115.574 Y83.111 E0.00559
G1 X115.848 Y83.311 E0.01064
G1 X116.163 Y83.436 E0.01064
G1 X116.500 Y83.478 E0.01064
G1 X116.837 Y83.436 E0.01064
G1 X117.152 Y83.311 E0.01064
G1 X117.426 Y83.111 E0.01064
G1 X117.643 Y82.850 E0.01064
G1 X117.787 Y82.543 E0.01064
G1 X117.851 Y82.210 E0.01064
G1 X117.829 Y81.871 E0.01064
G1 X117.724 Y81.549 E0.01064
G1 X117.543 Y81.262 E0.01064
G1 X117.295 Y81.030 E0.01064
G1 X116.998 Y80.867 E0.01064
G1 X116.670 Y80.782 E0.01064
G1 X116.330 Y80.782 E0.01064
G1 X116.002 Y80.867 E0.01064
G1 X115.705 Y81.030 E0.01064
G1 X115.460 Y81.260 E0.01052
G1 X115.460 Y80.754 E0.01585
G1 X115.487 Y80.646 E0.00349
G1 X116.272 Y79.850 E0.03504
G1 X116.366 Y79.794 E0.00344
G1 X133.571 Y79.785 E0.53946
G1 X133.677 Y79.812 E0.00343
G1 X133.729 Y79.851 E0.00203
G1 X134.513 Y80.646 E0.03503
G1 X134.540 Y80.754 E0.00349
G1 X134.540 Y81.260 E0.01585
G1 X134.295 Y81.030 E0.01052
G1 X133.998 Y80.867 E0.01064
G1 X133.670 Y80.782 E0.01064
G1 X133.330 Y80.782 E0.01064
G1 X133.002 Y80.867 E0.01064
G1 X132.705 Y81.030 E0.01064
G1 X132.457 Y81.262 E0.01064
G1 X132.276 Y81.549 E0.01064
G1 X132.171 Y81.871 E0.01064
G1 X132.149 Y82.210 E0.01064
G1 X132.213 Y82.543 E0.01064
G1 X132.357 Y82.850 E0.01064
G1 X132.574 Y83.111 E0.01064
G1 X132.848 Y83.311 E0.01064
G1 X133.163 Y83.436 E0.01064
G1 X133.500 Y83.478 E0.01064
G1 X133.837 Y83.436 E0.01064
G1 X134.152 Y83.311 E0.01064
G1 X134.426 Y83.111 E0.01064
G1 X134.540 Y82.974 E0.00559
G1 X134.540 Y85.258 E0.07162
G1 X134.607 Y85.608 E0.01116
G1 X134.715 Y85.829 E0.00773
G1 X134.845 Y86.011 E0.00701
G1 X135.016 Y86.152 E0.00696
G1 X135.215 Y86.221 E0.00658
G1 X157.718 Y86.213 E0.70558
G1 X157.915 Y86.309 E0.00685
