; generated by Slic3r 1.37.2-prusa3d-win64 on 2018-04-02 at 17:42:37

; 

; external perimeters extrusion width = 0.45mm
; perimeters extrusion width = 0.45mm
; infill extrusion width = 0.45mm
; solid infill extrusion width = 0.45mm
; top infill extrusion width = 0.45mm
; first layer extrusion width = 0.42mm

M107
M115 U3.1.0 ; tell printer latest fw version
M83  ; extruder relative mode
M104 S215 ; set extruder temp
M140 S55 ; set bed temp
M190 S55 ; wait for bed temp
M109 S215 ; wait for extruder temp
G28 W ; home all without mesh bed level
G80 ; mesh bed leveling
G1 Y-3.0 F1000.0 ; go outside print area
G92 E0.0
G1 X60.0 E9.0  F1000.0 ; intro line
G1 X100.0 E12.5  F1000.0 ; intro line
G92 E0.0
M900 K30 ; Filament gcode
G21 ; set units to millimeters
G90 ; use absolute coordinates
M83 ; use relative distances for extrusion
;BEFORE_LAYER_CHANGE
;0.2


G1 E-0.80000 F2100.00000
G1 Z0.130 F7200.000
;AFTER_LAYER_CHANGE
;0.2
G1 X78.101 Y65.129 F7200.000
G1 E0.80000 F2100.00000
M204 S1000
G1 F1800
G1 X78.906 Y64.163 E0.03942
G1 X81.456 Y61.455 E0.11664
G1 X84.161 Y58.908 E0.11652
G1 X86.966 Y56.569 E0.11449
G1 X90.075 Y54.281 E0.12105
G1 X93.142 Y52.299 E0.11449
G1 X96.382 Y50.472 E0.11664
G1 X99.727 Y48.843 E0.11664
G1 X103.096 Y47.447 E0.11437
G1 X106.746 Y46.187 E0.12105
G1 X110.263 Y45.208 E0.11449
G1 X113.896 Y44.428 E0.11652
G1 X117.574 Y43.868 E0.11664
G1 X121.210 Y43.536 E0.11449
G1 X125.004 Y43.418 E0.11902
G1 X128.715 Y43.530 E0.11640
G1 X132.351 Y43.860 E0.11449
G1 X136.168 Y44.440 E0.12105
G1 X139.738 Y45.208 E0.11449
G1 X143.321 Y46.207 E0.11664
G1 X146.834 Y47.419 E0.11652
G1 X150.208 Y48.815 E0.11449
G1 X153.679 Y50.505 E0.12105
G1 X156.859 Y52.300 E0.11449
G1 X159.980 Y54.317 E0.11652
G1 X163.034 Y56.569 E0.11899
G1 X165.837 Y58.906 E0.11440
G1 X168.545 Y61.456 E0.11664
G1 X171.092 Y64.161 E0.11652
G1 X173.431 Y66.966 E0.11449
G1 X175.719 Y70.075 E0.12105
G1 X177.701 Y73.142 E0.11449
G1 X179.528 Y76.382 E0.11664
G1 X181.157 Y79.727 E0.11664
G1 X182.553 Y83.096 E0.11437
G1 X183.813 Y86.746 E0.12105
G1 X184.792 Y90.263 E0.11449
G1 X185.572 Y93.896 E0.11652
G1 X186.140 Y97.649 E0.11899
G1 X186.469 Y101.282 E0.11440
G1 X186.582 Y105.001 E0.11664
G1 X186.469 Y108.719 E0.11664
G1 X186.140 Y112.351 E0.11437
G1 X185.560 Y116.168 E0.12105
G1 X184.792 Y119.738 E0.11449
G1 X183.793 Y123.321 E0.11664
G1 X182.580 Y126.838 E0.11664
G1 X181.185 Y130.208 E0.11437
G1 X179.494 Y133.682 E0.12113
G1 X177.700 Y136.859 E0.11440
G1 X175.683 Y139.980 E0.11652
G1 X173.431 Y143.034 E0.11899
G1 X171.094 Y145.837 E0.11440
G1 X168.544 Y148.545 E0.11664
G1 X165.839 Y151.092 E0.11652
G1 X163.034 Y153.431 E0.11449
G1 X159.925 Y155.719 E0.12105
G1 X156.858 Y157.701 E0.11449
G1 X153.618 Y159.528 E0.11664
G1 X150.277 Y161.155 E0.11652
G1 X146.904 Y162.553 E0.11449
G1 X143.254 Y163.813 E0.12105
G1 X139.737 Y164.792 E0.11449
G1 X136.104 Y165.572 E0.11652
G1 X132.351 Y166.140 E0.11899
G1 X128.718 Y166.469 E0.11440
G1 X124.999 Y166.582 E0.11664
G1 X121.281 Y166.469 E0.11664
G1 X117.649 Y166.140 E0.11437
G1 X113.832 Y165.560 E0.12105
G1 X110.262 Y164.792 E0.11449
G1 X106.679 Y163.793 E0.11664
G1 X103.162 Y162.580 E0.11664
G1 X99.792 Y161.185 E0.11437
G1 X96.321 Y159.495 E0.12105
G1 X93.141 Y157.700 E0.11449
G1 X90.020 Y155.683 E0.11652
G1 X86.966 Y153.431 E0.11899
G1 X84.163 Y151.094 E0.11440
G1 X81.455 Y148.544 E0.11664
G1 X78.905 Y145.836 E0.11663
G1 X76.569 Y143.034 E0.11437
G1 X74.281 Y139.925 E0.12105
G1 X72.299 Y136.858 E0.11449
G1 X70.472 Y133.618 E0.11664
G1 X68.843 Y130.273 E0.11664
G1 X67.447 Y126.904 E0.11437
G1 X66.187 Y123.254 E0.12105
G1 X65.208 Y119.737 E0.11449
G1 X64.428 Y116.104 E0.11652
G1 X63.868 Y112.426 E0.11664
G1 X63.538 Y108.825 E0.11338
G1 X63.418 Y105.000 E0.11999
G1 X63.533 Y101.250 E0.11765
G1 X63.860 Y97.648 E0.11340
G1 X64.440 Y93.832 E0.12103
G1 X65.208 Y90.262 E0.11449
G1 X66.207 Y86.679 E0.11664
G1 X67.420 Y83.162 E0.11664
G1 X68.815 Y79.792 E0.11437
G1 X70.505 Y76.321 E0.12105
G1 X72.300 Y73.141 E0.11449
G1 X74.317 Y70.020 E0.11652
G1 X76.569 Y66.966 E0.11899
G1 X78.062 Y65.175 E0.07310
G1 F5760
G1 X78.906 Y64.163 E-0.45619
G1 F5760
G1 X79.507 Y63.525 E-0.30381
G1 E-0.04000 F2100.00000
G1 X85.640 Y122.300 F7200.000
G1 E0.80000 F2100.00000
G1 F1800
G1 X86.736 Y122.204 E0.03447
G1 X101.292 Y122.204 E0.45641
G1 X102.387 Y122.300 E0.03447
G1 X103.490 Y122.595 E0.03580
G1 X104.525 Y123.078 E0.03580
G1 X105.460 Y123.733 E0.03580
G1 X106.267 Y124.540 E0.03580
G1 X106.922 Y125.475 E0.03580
G1 X107.405 Y126.510 E0.03580
G1 X107.700 Y127.613 E0.03580
G1 X107.796 Y128.708 E0.03447
G1 X107.796 Y143.264 E0.45641
G1 X107.700 Y144.360 E0.03447
G1 X107.405 Y145.462 E0.03580
G1 X106.922 Y146.497 E0.03580
G1 X106.267 Y147.432 E0.03580
G1 X105.460 Y148.240 E0.03580
G1 X104.525 Y148.895 E0.03580
G1 X103.490 Y149.377 E0.03580
G1 X102.387 Y149.673 E0.03580
G1 X101.250 Y149.772 E0.03580
G1 X100.113 Y149.673 E0.03580
G1 X99.010 Y149.377 E0.03580
G1 X97.995 Y148.904 E0.03512
G1 X96.617 Y148.028 E0.05118
G1 X93.897 Y146.106 E0.10444
G1 X91.301 Y144.006 E0.10467
G1 X88.847 Y141.743 E0.10467
G1 X88.055 Y140.911 E0.03602
G1 X86.545 Y139.326 E0.06865
G1 X84.404 Y136.765 E0.10467
G1 X82.435 Y134.073 E0.10455
G1 X81.098 Y132.009 E0.07711
G1 X80.623 Y130.990 E0.03525
G1 X80.327 Y129.887 E0.03580
G1 X80.228 Y128.750 E0.03580
G1 X80.327 Y127.613 E0.03580
G1 X80.623 Y126.510 E0.03580
G1 X81.105 Y125.475 E0.03580
G1 X81.760 Y124.540 E0.03580
G1 X82.568 Y123.733 E0.03580
G1 X83.503 Y123.078 E0.03580
G1 X84.538 Y122.595 E0.03580
G1 X85.582 Y122.315 E0.03392
G1 X85.680 Y122.679 F7200.000
G1 F1800
G1 X86.752 Y122.581 E0.03376
G1 X101.276 Y122.581 E0.45537
G1 X102.322 Y122.672 E0.03292
G1 X103.361 Y122.951 E0.03373
G1 X104.336 Y123.405 E0.03373
G1 X105.217 Y124.022 E0.03373
G1 X105.978 Y124.783 E0.03373
G1 X106.595 Y125.664 E0.03373
G1 X107.049 Y126.639 E0.03373
G1 X107.328 Y127.678 E0.03373
G1 X107.419 Y128.724 E0.03292
G1 X107.419 Y143.248 E0.45537
G1 X107.328 Y144.294 E0.03292
G1 X107.049 Y145.333 E0.03373
G1 X106.595 Y146.308 E0.03373
G1 X105.978 Y147.189 E0.03373
G1 X105.217 Y147.950 E0.03373
G1 X104.336 Y148.567 E0.03373
G1 X103.361 Y149.021 E0.03373
G1 X102.322 Y149.300 E0.03373
G1 X101.250 Y149.394 E0.03373
G1 X100.178 Y149.300 E0.03373
G1 X99.139 Y149.021 E0.03373
G1 X98.176 Y148.572 E0.03331
G1 X96.827 Y147.715 E0.05012
G1 X94.125 Y145.805 E0.10376
G1 X91.548 Y143.721 E0.10391
G1 X89.112 Y141.474 E0.10391
G1 X88.328 Y140.651 E0.03564
G1 X86.826 Y139.074 E0.06827
G1 X84.701 Y136.532 E0.10391
G1 X82.745 Y133.859 E0.10383
G1 X81.429 Y131.826 E0.07595
G1 X80.979 Y130.861 E0.03339
G1 X80.700 Y129.822 E0.03373
G1 X80.606 Y128.750 E0.03373
G1 X80.700 Y127.678 E0.03373
G1 X80.979 Y126.639 E0.03373
G1 X81.433 Y125.664 E0.03373
G1 X82.050 Y124.783 E0.03373
G1 X82.811 Y124.022 E0.03373
G1 X83.692 Y123.405 E0.03373
G1 X84.667 Y122.951 E0.03373
G1 X85.622 Y122.695 E0.03100
G1 X85.720 Y123.059 F7200.000
G1 F1800
G1 X86.769 Y122.958 E0.03304
G1 X101.259 Y122.958 E0.45434
G1 X102.256 Y123.045 E0.03137
G1 X103.231 Y123.307 E0.03166
G1 X104.146 Y123.733 E0.03166
G1 X104.974 Y124.312 E0.03166
G1 X105.688 Y125.026 E0.03166
G1 X106.267 Y125.854 E0.03166
G1 X106.693 Y126.769 E0.03166
G1 X106.955 Y127.744 E0.03166
G1 X107.042 Y128.741 E0.03137
G1 X107.042 Y143.231 E0.45434
G1 X106.955 Y144.228 E0.03137
G1 X106.693 Y145.203 E0.03166
G1 X106.267 Y146.119 E0.03166
G1 X105.688 Y146.946 E0.03166
G1 X104.974 Y147.660 E0.03166
G1 X104.146 Y148.239 E0.03166
G1 X103.231 Y148.666 E0.03166
G1 X102.256 Y148.927 E0.03166
G1 X101.250 Y149.015 E0.03166
G1 X100.244 Y148.927 E0.03166
G1 X99.269 Y148.666 E0.03166
G1 X98.358 Y148.241 E0.03151
G1 X97.037 Y147.402 E0.04907
G1 X94.352 Y145.504 E0.10309
G1 X91.795 Y143.435 E0.10314
G1 X89.377 Y141.205 E0.10314
G1 X88.601 Y140.391 E0.03525
G1 X87.108 Y138.823 E0.06789
G1 X84.998 Y136.300 E0.10314
G1 X83.056 Y133.645 E0.10311
G1 X81.759 Y131.643 E0.07480
G1 X81.334 Y130.731 E0.03154
G1 X81.073 Y129.756 E0.03166
G1 X80.985 Y128.750 E0.03166
G1 X81.073 Y127.744 E0.03166
G1 X81.334 Y126.769 E0.03166
G1 X81.761 Y125.854 E0.03166
G1 X82.340 Y125.026 E0.03166
G1 X83.054 Y124.312 E0.03166
G1 X83.881 Y123.733 E0.03166
G1 X84.797 Y123.307 E0.03166
G1 X85.662 Y123.075 E0.02808
G1 X85.854 Y122.682 F7200.000
G1 F5760
G1 X86.769 Y122.958 E-0.38550
G1 F5760
G1 X87.850 Y122.958 E-0.37450
G1 E-0.04000 F2100.00000
G1 X119.967 Y108.316 F7200.000
G1 E0.80000 F2100.00000
G1 F1800
G1 X119.672 Y107.867 E0.01684
G1 X119.246 Y106.870 E0.03401
G1 X119.096 Y106.214 E0.02108
G1 X118.704 Y106.720 E0.02007
G1 X118.212 Y107.097 E0.01944
G1 X117.626 Y107.341 E0.01991
G1 X116.989 Y107.421 E0.02013
G1 X116.374 Y107.340 E0.01944
G1 X115.787 Y107.098 E0.01991
G1 X115.280 Y106.704 E0.02013
G1 X114.903 Y106.212 E0.01944
G1 X114.659 Y105.626 E0.01991
G1 X114.579 Y104.989 E0.02013
G1 X114.660 Y104.374 E0.01944
G1 X114.901 Y103.790 E0.01982
G1 X115.286 Y103.288 E0.01983
G1 X115.790 Y102.901 E0.01992
G1 X116.384 Y102.659 E0.02013
G1 X116.999 Y102.578 E0.01944
G1 X117.626 Y102.660 E0.01982
G1 X118.213 Y102.902 E0.01992
G1 X118.720 Y103.296 E0.02013
G1 X119.086 Y103.772 E0.01884
G1 X119.102 Y103.654 E0.00376
G1 X119.437 Y102.622 E0.03401
G1 X119.940 Y101.687 E0.03330
G1 X119.343 Y101.766 E0.01888
G1 X118.716 Y101.683 E0.01983
G1 X118.132 Y101.441 E0.01983
G1 X117.630 Y101.056 E0.01983
G1 X117.245 Y100.554 E0.01983
G1 X117.008 Y99.982 E0.01943
G1 X116.920 Y99.346 E0.02012
G1 X117.003 Y98.716 E0.01993
G1 X117.245 Y98.132 E0.01983
G1 X117.630 Y97.630 E0.01983
G1 X118.132 Y97.245 E0.01983
G1 X118.716 Y97.003 E0.01983
G1 X119.331 Y96.922 E0.01943
G1 X119.967 Y97.002 E0.02012
G1 X120.554 Y97.245 E0.01993
G1 X121.056 Y97.630 E0.01983
G1 X121.441 Y98.132 E0.01983
G1 X121.678 Y98.705 E0.01943
G1 X121.766 Y99.340 E0.02012
G1 X121.684 Y99.962 E0.01966
G1 X122.375 Y99.549 E0.02523
G1 X123.390 Y99.168 E0.03401
G1 X123.786 Y99.096 E0.01262
G1 X123.287 Y98.713 E0.01973
G1 X122.902 Y98.211 E0.01983
G1 X122.665 Y97.639 E0.01943
G1 X122.577 Y97.003 E0.02012
G1 X122.660 Y96.373 E0.01993
G1 X122.902 Y95.789 E0.01983
G1 X123.287 Y95.287 E0.01983
G1 X123.789 Y94.902 E0.01983
G1 X124.373 Y94.660 E0.01983
G1 X124.988 Y94.579 E0.01943
G1 X125.624 Y94.659 E0.02012
G1 X126.211 Y94.902 E0.01993
G1 X126.713 Y95.287 E0.01983
G1 X127.098 Y95.789 E0.01983
G1 X127.335 Y96.361 E0.01943
G1 X127.423 Y96.997 E0.02012
G1 X127.340 Y97.627 E0.01993
G1 X127.098 Y98.211 E0.01983
G1 X126.713 Y98.713 E0.01983
G1 X126.213 Y99.096 E0.01974
G1 X126.612 Y99.169 E0.01269
G1 X127.625 Y99.549 E0.03394
G1 X128.316 Y99.962 E0.02523
G1 X128.234 Y99.343 E0.01956
G1 X128.317 Y98.716 E0.01983
G1 X128.559 Y98.132 E0.01983
G1 X128.944 Y97.630 E0.01983
G1 X129.446 Y97.245 E0.01983
G1 X130.030 Y97.003 E0.01983
G1 X130.644 Y96.922 E0.01943
G1 X131.281 Y97.002 E0.02012
G1 X131.868 Y97.245 E0.01993
G1 X132.370 Y97.630 E0.01983
G1 X132.755 Y98.132 E0.01983
G1 X132.992 Y98.705 E0.01943
G1 X133.080 Y99.340 E0.02012
G1 X132.997 Y99.970 E0.01993
G1 X132.755 Y100.554 E0.01983
G1 X132.370 Y101.056 E0.01983
G1 X131.868 Y101.441 E0.01983
G1 X131.295 Y101.678 E0.01943
G1 X130.660 Y101.766 E0.02012
G1 X130.060 Y101.687 E0.01897
G1 X130.563 Y102.622 E0.03330
G1 X130.898 Y103.654 E0.03401
G1 X130.915 Y103.773 E0.00377
G1 X131.286 Y103.288 E0.01915
G1 X131.790 Y102.901 E0.01992
G1 X132.384 Y102.659 E0.02013
G1 X132.999 Y102.578 E0.01944
G1 X133.626 Y102.660 E0.01982
G1 X134.213 Y102.902 E0.01992
G1 X134.720 Y103.296 E0.02013
G1 X135.097 Y103.788 E0.01944
G1 X135.341 Y104.374 E0.01991
G1 X135.421 Y105.011 E0.02013
G1 X135.340 Y105.626 E0.01944
G1 X135.098 Y106.213 E0.01991
G1 X134.704 Y106.720 E0.02013
G1 X134.212 Y107.097 E0.01944
G1 X133.626 Y107.341 E0.01991
G1 X132.989 Y107.421 E0.02013
G1 X132.374 Y107.340 E0.01944
G1 X131.787 Y107.098 E0.01991
G1 X131.280 Y106.704 E0.02013
G1 X130.904 Y106.214 E0.01939
G1 X130.754 Y106.870 E0.02110
G1 X130.328 Y107.867 E0.03401
G1 X130.031 Y108.317 E0.01690
G1 X130.644 Y108.236 E0.01941
G1 X131.281 Y108.316 E0.02012
G1 X131.868 Y108.559 E0.01993
G1 X132.370 Y108.944 E0.01983
G1 X132.755 Y109.446 E0.01983
G1 X132.992 Y110.018 E0.01943
G1 X133.080 Y110.654 E0.02012
G1 X132.997 Y111.284 E0.01993
G1 X132.755 Y111.868 E0.01983
G1 X132.370 Y112.370 E0.01983
G1 X131.868 Y112.755 E0.01983
G1 X131.295 Y112.992 E0.01943
G1 X130.660 Y113.080 E0.02012
G1 X130.030 Y112.997 E0.01993
G1 X129.446 Y112.755 E0.01983
G1 X128.944 Y112.370 E0.01983
G1 X128.559 Y111.868 E0.01983
G1 X128.322 Y111.295 E0.01943
G1 X128.234 Y110.660 E0.02012
G1 X128.316 Y110.039 E0.01963
G1 X128.103 Y110.194 E0.00824
G1 X127.126 Y110.664 E0.03401
G1 X126.225 Y110.913 E0.02929
G1 X126.713 Y111.287 E0.01927
G1 X127.098 Y111.789 E0.01983
G1 X127.335 Y112.361 E0.01943
G1 X127.423 Y112.997 E0.02012
G1 X127.340 Y113.627 E0.01993
G1 X127.098 Y114.211 E0.01983
G1 X126.713 Y114.713 E0.01983
G1 X126.211 Y115.098 E0.01983
G1 X125.627 Y115.340 E0.01983
G1 X125.000 Y115.422 E0.01983
G1 X124.373 Y115.340 E0.01983
G1 X123.800 Y115.103 E0.01943
G1 X123.289 Y114.715 E0.02012
G1 X122.902 Y114.211 E0.01993
G1 X122.665 Y113.639 E0.01943
G1 X122.577 Y113.003 E0.02012
G1 X122.660 Y112.373 E0.01993
G1 X122.902 Y111.789 E0.01983
G1 X123.287 Y111.287 E0.01983
G1 X123.775 Y110.913 E0.01927
G1 X122.874 Y110.664 E0.02929
G1 X121.897 Y110.194 E0.03401
G1 X121.684 Y110.039 E0.00824
G1 X121.766 Y110.657 E0.01953
G1 X121.683 Y111.284 E0.01983
G1 X121.441 Y111.868 E0.01983
G1 X121.056 Y112.370 E0.01983
G1 X120.554 Y112.755 E0.01983
G1 X119.982 Y112.992 E0.01943
G1 X119.346 Y113.080 E0.02012
G1 X118.716 Y112.997 E0.01993
G1 X118.132 Y112.755 E0.01983
G1 X117.630 Y112.370 E0.01983
G1 X117.245 Y111.868 E0.01983
G1 X117.008 Y111.295 E0.01943
G1 X116.920 Y110.660 E0.02012
G1 X117.003 Y110.030 E0.01993
G1 X117.245 Y109.446 E0.01983
G1 X117.630 Y108.944 E0.01983
G1 X118.132 Y108.559 E0.01983
G1 X118.716 Y108.317 E0.01983
G1 X119.331 Y108.236 E0.01943
G1 X119.908 Y108.308 E0.01823
G1 F5760
G1 X119.672 Y107.867 E-0.17324
G1 F5760
G1 X119.246 Y106.870 E-0.37567
G1 F5760
G1 X119.110 Y106.275 E-0.21108
G1 E-0.04000 F2100.00000
G1 X123.556 Y111.556 F7200.000
G1 E0.80000 F2100.00000
G1 F1800
G1 X123.979 Y111.231 E0.01672
G1 X124.471 Y111.027 E0.01672
G1 X124.989 Y110.959 E0.01636
G1 X125.527 Y111.027 E0.01700
G1 X126.021 Y111.231 E0.01677
G1 X126.444 Y111.556 E0.01672
G1 X126.769 Y111.979 E0.01672
G1 X126.968 Y112.461 E0.01636
G1 X127.042 Y112.998 E0.01700
G1 X126.973 Y113.529 E0.01677
G1 X126.769 Y114.021 E0.01672
G1 X126.444 Y114.444 E0.01672
G1 X126.021 Y114.769 E0.01672
G1 X125.529 Y114.973 E0.01672
G1 X125.000 Y115.042 E0.01672
G1 X124.471 Y114.973 E0.01672
G1 X123.989 Y114.773 E0.01636
G1 X123.557 Y114.446 E0.01700
G1 X123.231 Y114.021 E0.01677
G1 X123.032 Y113.539 E0.01636
G1 X122.958 Y113.002 E0.01700
G1 X123.027 Y112.471 E0.01677
G1 X123.231 Y111.979 E0.01672
G1 X123.519 Y111.604 E0.01483
G1 X123.819 Y111.833 F7200.000
G1 F1800
G1 X124.169 Y111.561 E0.01392
G1 X124.570 Y111.395 E0.01360
G1 X124.990 Y111.340 E0.01328
G1 X125.429 Y111.395 E0.01389
G1 X125.831 Y111.561 E0.01362
G1 X126.175 Y111.825 E0.01360
G1 X126.439 Y112.169 E0.01360
G1 X126.601 Y112.561 E0.01328
G1 X126.662 Y112.999 E0.01389
G1 X126.605 Y113.430 E0.01362
G1 X126.439 Y113.831 E0.01360
G1 X126.175 Y114.175 E0.01360
G1 X125.831 Y114.439 E0.01360
G1 X125.430 Y114.605 E0.01360
G1 X125.000 Y114.662 E0.01360
G1 X124.570 Y114.605 E0.01360
G1 X124.178 Y114.443 E0.01328
G1 X123.825 Y114.176 E0.01389
G1 X123.561 Y113.831 E0.01362
G1 X123.399 Y113.439 E0.01328
G1 X123.338 Y113.001 E0.01389
G1 X123.395 Y112.570 E0.01362
G1 X123.561 Y112.169 E0.01360
G1 X123.782 Y111.881 E0.01140
G1 X123.713 Y111.447 F7200.000
G1 F5760
G1 X124.169 Y111.561 E-0.17391
G1 F5760
G1 X124.570 Y111.395 E-0.15026
G1 F5760
G1 X124.990 Y111.340 E-0.14674
G1 F5760
G1 X125.429 Y111.395 E-0.15342
G1 F5760
G1 X125.791 Y111.544 E-0.13567
G1 E-0.04000 F2100.00000
G1 X128.689 Y111.196 F7200.000
G1 E0.80000 F2100.00000
G1 F1800
G1 X128.614 Y110.659 E0.01700
G1 X128.684 Y110.128 E0.01677
G1 X128.888 Y109.636 E0.01672
G1 X129.213 Y109.213 E0.01672
