; generated by Slic3r 1.37.2-prusa3d-win64 on 2018-03-30 at 22:20:37

; 

; external perimeters extrusion width = 0.45mm
; perimeters extrusion width = 0.45mm
; infill extrusion width = 0.45mm
; solid infill extrusion width = 0.45mm
; top infill extrusion width = 0.45mm
; first layer extrusion width = 0.42mm

M107
M115 U3.1.0 ; tell printer latest fw version
M83  ; extruder relative mode
M104 S215 ; set extruder temp
M140 S55 ; set bed temp
M190 S55 ; wait for bed temp
M109 S215 ; wait for extruder temp
G28 W ; home all without mesh bed level
G80 ; mesh bed leveling
G1 Y-3.0 F1000.0 ; go outside print area
G92 E0.0
G1 X60.0 E9.0  F1000.0 ; intro line
G1 X100.0 E12.5  F1000.0 ; intro line
G92 E0.0
M900 K30 ; Filament gcode
G21 ; set units to millimeters
G90 ; use absolute coordinates
M83 ; use relative distances for extrusion
;BEFORE_LAYER_CHANGE
;0.2


G1 E-0.80000 F2100.00000
G1 Z0.130 F7200.000
;AFTER_LAYER_CHANGE
;0.2
G1 X78.101 Y65.129 F7200.000
G1 E0.80000 F2100.00000
M204 S1000
G1 F1800
G1 X78.906 Y64.163 E0.03942
G1 X81.456 Y61.455 E0.11664
G1 X84.161 Y58.908 E0.11652
G1 X86.966 Y56.569 E0.11449
G1 X90.075 Y54.281 E0.12105
G1 X93.142 Y52.299 E0.11449
G1 X96.382 Y50.472 E0.11664
G1 X99.727 Y48.843 E0.11664
G1 X103.096 Y47.447 E0.11437
G1 X106.746 Y46.187 E0.12105
G1 X110.263 Y45.208 E0.11449
G1 X113.896 Y44.428 E0.11652
G1 X117.574 Y43.868 E0.11664
G1 X121.210 Y43.536 E0.11449
G1 X125.004 Y43.418 E0.11902
G1 X128.715 Y43.530 E0.11640
G1 X132.351 Y43.860 E0.11449
G1 X136.168 Y44.440 E0.12105
G1 X139.738 Y45.208 E0.11449
G1 X143.321 Y46.207 E0.11664
G1 X146.834 Y47.419 E0.11652
G1 X150.208 Y48.815 E0.11449
G1 X153.679 Y50.505 E0.12105
G1 X156.859 Y52.300 E0.11449
G1 X159.980 Y54.317 E0.11652
G1 X163.034 Y56.569 E0.11899
G1 X165.837 Y58.906 E0.11440
G1 X168.545 Y61.456 E0.11664
G1 X171.092 Y64.161 E0.11652
G1 X173.431 Y66.966 E0.11449
G1 X175.719 Y70.075 E0.12105
G1 X177.701 Y73.142 E0.11449
G1 X179.528 Y76.382 E0.11664
G1 X181.157 Y79.727 E0.11664
G1 X182.553 Y83.096 E0.11437
G1 X183.813 Y86.746 E0.12105
G1 X184.792 Y90.263 E0.11449
G1 X185.572 Y93.896 E0.11652
G1 X186.140 Y97.649 E0.11899
G1 X186.469 Y101.282 E0.11440
G1 X186.582 Y105.001 E0.11664
G1 X186.469 Y108.719 E0.11664
G1 X186.140 Y112.351 E0.11437
G1 X185.560 Y116.168 E0.12105
G1 X184.792 Y119.738 E0.11449
G1 X183.793 Y123.321 E0.11664
G1 X182.580 Y126.838 E0.11664
G1 X181.185 Y130.208 E0.11437
G1 X179.494 Y133.682 E0.12113
G1 X177.700 Y136.859 E0.11440
G1 X175.683 Y139.980 E0.11652
G1 X173.431 Y143.034 E0.11899
G1 X171.094 Y145.837 E0.11440
G1 X168.544 Y148.545 E0.11664
G1 X165.839 Y151.092 E0.11652
G1 X163.034 Y153.431 E0.11449
G1 X159.925 Y155.719 E0.12105
G1 X156.858 Y157.701 E0.11449
G1 X153.618 Y159.528 E0.11664
G1 X150.277 Y161.155 E0.11652
G1 X146.904 Y162.553 E0.11449
G1 X143.254 Y163.813 E0.12105
G1 X139.737 Y164.792 E0.11449
G1 X136.104 Y165.572 E0.11652
G1 X132.351 Y166.140 E0.11899
G1 X128.718 Y166.469 E0.11440
G1 X124.999 Y166.582 E0.11664
G1 X121.281 Y166.469 E0.11664
G1 X117.649 Y166.140 E0.11437
G1 X113.832 Y165.560 E0.12105
G1 X110.262 Y164.792 E0.11449
G1 X106.679 Y163.793 E0.11664
G1 X103.162 Y162.580 E0.11664
G1 X99.792 Y161.185 E0.11437
G1 X96.321 Y159.495 E0.12105
G1 X93.141 Y157.700 E0.11449
G1 X90.020 Y155.683 E0.11652
G1 X86.966 Y153.431 E0.11899
G1 X84.163 Y151.094 E0.11440
G1 X81.455 Y148.544 E0.11664
G1 X78.905 Y145.836 E0.11663
G1 X76.569 Y143.034 E0.11437
G1 X74.281 Y139.925 E0.12105
G1 X72.299 Y136.858 E0.11449
G1 X70.472 Y133.618 E0.11664
G1 X68.843 Y130.273 E0.11664
G1 X67.447 Y126.904 E0.11437
G1 X66.187 Y123.254 E0.12105
G1 X65.208 Y119.737 E0.11449
G1 X64.428 Y116.104 E0.11652
G1 X63.868 Y112.426 E0.11664
G1 X63.538 Y108.825 E0.11338
G1 X63.418 Y105.000 E0.11999
G1 X63.533 Y101.250 E0.11765
G1 X63.860 Y97.648 E0.11340
G1 X64.440 Y93.832 E0.12103
G1 X65.208 Y90.262 E0.11449
G1 X66.207 Y86.679 E0.11664
G1 X67.420 Y83.162 E0.11664
G1 X68.815 Y79.792 E0.11437
G1 X70.505 Y76.321 E0.12105
G1 X72.300 Y73.141 E0.11449
G1 X74.317 Y70.020 E0.11652
G1 X76.569 Y66.966 E0.11899
G1 X78.062 Y65.175 E0.07310
G1 F5760
G1 X78.906 Y64.163 E-0.45619
G1 F5760
G1 X79.507 Y63.525 E-0.30381
G1 E-0.04000 F2100.00000
G1 X110.632 Y133.271 F7200.000
G1 E0.80000 F2100.00000
G1 F1800
G1 X111.735 Y132.976 E0.03580
G1 X112.872 Y132.876 E0.03580
G1 X114.007 Y132.976 E0.03572
G1 X114.989 Y133.233 E0.03182
G1 X117.649 Y134.037 E0.08713
G1 X120.070 Y134.544 E0.07756
G1 X122.526 Y134.851 E0.07762
G1 X125.000 Y134.953 E0.07762
G1 X127.474 Y134.851 E0.07762
G1 X129.930 Y134.544 E0.07762
G1 X132.351 Y134.037 E0.07756
G1 X135.011 Y133.233 E0.08713
G1 X135.993 Y132.976 E0.03182
G1 X137.128 Y132.876 E0.03572
G1 X138.265 Y132.976 E0.03580
G1 X139.368 Y133.271 E0.03580
G1 X140.365 Y133.736 E0.03447
G1 X152.559 Y140.776 E0.44149
G1 X153.459 Y141.407 E0.03447
G1 X154.267 Y142.214 E0.03580
G1 X154.921 Y143.149 E0.03580
G1 X155.404 Y144.184 E0.03580
G1 X155.699 Y145.287 E0.03580
G1 X155.799 Y146.424 E0.03580
G1 X155.699 Y147.562 E0.03580
G1 X155.404 Y148.665 E0.03580
G1 X154.921 Y149.699 E0.03580
G1 X154.267 Y150.635 E0.03580
G1 X153.460 Y151.441 E0.03575
G1 X152.586 Y152.057 E0.03354
G1 X151.270 Y152.804 E0.04743
G1 X148.225 Y154.355 E0.10717
G1 X145.080 Y155.716 E0.10744
G1 X141.856 Y156.877 E0.10744
G1 X138.565 Y157.833 E0.10744
G1 X135.221 Y158.580 E0.10744
G1 X131.837 Y159.117 E0.10744
G1 X128.425 Y159.439 E0.10744
G1 X125.000 Y159.547 E0.10744
G1 X121.575 Y159.439 E0.10744
G1 X118.163 Y159.117 E0.10744
G1 X114.779 Y158.580 E0.10744
G1 X111.435 Y157.833 E0.10744
G1 X108.144 Y156.877 E0.10744
G1 X104.920 Y155.716 E0.10744
G1 X101.775 Y154.355 E0.10744
G1 X98.730 Y152.804 E0.10717
G1 X97.414 Y152.057 E0.04743
G1 X96.540 Y151.441 E0.03354
G1 X95.733 Y150.635 E0.03575
G1 X95.079 Y149.699 E0.03580
G1 X94.596 Y148.665 E0.03580
G1 X94.301 Y147.562 E0.03580
G1 X94.201 Y146.424 E0.03580
G1 X94.301 Y145.287 E0.03580
G1 X94.596 Y144.184 E0.03580
G1 X95.079 Y143.149 E0.03580
G1 X95.733 Y142.214 E0.03580
G1 X96.541 Y141.407 E0.03580
G1 X97.441 Y140.776 E0.03447
G1 X109.635 Y133.736 E0.44149
G1 X110.578 Y133.297 E0.03259
G1 X110.737 Y133.638 F7200.000
G1 F1800
G1 X111.800 Y133.349 E0.03456
G1 X112.872 Y133.255 E0.03373
G1 X113.942 Y133.348 E0.03368
G1 X114.886 Y133.596 E0.03060
G1 X117.555 Y134.403 E0.08743
G1 X120.008 Y134.917 E0.07856
G1 X122.495 Y135.227 E0.07860
G1 X125.000 Y135.330 E0.07860
G1 X127.505 Y135.227 E0.07860
G1 X129.992 Y134.917 E0.07860
G1 X132.445 Y134.403 E0.07856
G1 X135.114 Y133.596 E0.08743
G1 X136.058 Y133.348 E0.03060
G1 X137.128 Y133.255 E0.03368
G1 X138.200 Y133.349 E0.03373
G1 X139.239 Y133.627 E0.03373
G1 X140.190 Y134.071 E0.03292
G1 X152.356 Y141.095 E0.44045
G1 X153.216 Y141.697 E0.03292
G1 X153.977 Y142.458 E0.03373
G1 X154.594 Y143.339 E0.03373
G1 X155.048 Y144.314 E0.03373
G1 X155.327 Y145.353 E0.03373
G1 X155.420 Y146.424 E0.03373
G1 X155.327 Y147.496 E0.03373
G1 X155.048 Y148.535 E0.03373
G1 X154.594 Y149.510 E0.03373
G1 X153.977 Y150.391 E0.03373
G1 X153.217 Y151.151 E0.03370
G1 X152.384 Y151.738 E0.03194
G1 X151.092 Y152.471 E0.04658
G1 X148.064 Y154.014 E0.10653
G1 X144.941 Y155.365 E0.10670
G1 X141.739 Y156.518 E0.10670
G1 X138.471 Y157.468 E0.10670
G1 X135.150 Y158.210 E0.10670
G1 X131.789 Y158.742 E0.10670
G1 X128.401 Y159.062 E0.10670
G1 X125.000 Y159.169 E0.10670
G1 X121.599 Y159.062 E0.10670
G1 X118.211 Y158.742 E0.10670
G1 X114.850 Y158.210 E0.10670
G1 X111.529 Y157.468 E0.10670
G1 X108.261 Y156.518 E0.10670
G1 X105.059 Y155.365 E0.10670
G1 X101.936 Y154.014 E0.10670
G1 X98.908 Y152.471 E0.10653
G1 X97.616 Y151.738 E0.04658
G1 X96.783 Y151.151 E0.03194
G1 X96.023 Y150.391 E0.03370
G1 X95.406 Y149.510 E0.03373
G1 X94.952 Y148.535 E0.03373
G1 X94.673 Y147.496 E0.03373
G1 X94.580 Y146.424 E0.03373
G1 X94.673 Y145.353 E0.03373
G1 X94.952 Y144.314 E0.03373
G1 X95.406 Y143.339 E0.03373
G1 X96.023 Y142.458 E0.03373
G1 X96.784 Y141.697 E0.03373
G1 X97.644 Y141.095 E0.03292
G1 X109.810 Y134.071 E0.44045
G1 X110.682 Y133.664 E0.03019
G1 X110.842 Y134.006 F7200.000
G1 F1800
G1 X111.866 Y133.721 E0.03333
G1 X112.872 Y133.633 E0.03166
G1 X113.877 Y133.721 E0.03164
G1 X114.784 Y133.959 E0.02938
G1 X117.462 Y134.768 E0.08772
G1 X119.946 Y135.289 E0.07956
G1 X122.464 Y135.603 E0.07958
G1 X125.000 Y135.708 E0.07958
G1 X127.536 Y135.603 E0.07958
G1 X130.054 Y135.289 E0.07958
G1 X132.538 Y134.768 E0.07956
G1 X135.216 Y133.959 E0.08772
G1 X136.123 Y133.721 E0.02938
G1 X137.128 Y133.633 E0.03164
G1 X138.134 Y133.721 E0.03166
G1 X139.109 Y133.983 E0.03166
G1 X140.016 Y134.406 E0.03137
G1 X152.153 Y141.413 E0.43942
G1 X152.973 Y141.987 E0.03137
G1 X153.687 Y142.701 E0.03166
G1 X154.266 Y143.528 E0.03166
G1 X154.693 Y144.443 E0.03166
G1 X154.954 Y145.418 E0.03166
G1 X155.042 Y146.424 E0.03166
G1 X154.954 Y147.430 E0.03166
G1 X154.693 Y148.406 E0.03166
G1 X154.266 Y149.321 E0.03166
G1 X153.687 Y150.148 E0.03166
G1 X152.973 Y150.862 E0.03165
G1 X152.182 Y151.419 E0.03035
G1 X150.913 Y152.139 E0.04574
G1 X147.904 Y153.673 E0.10590
G1 X144.802 Y155.015 E0.10596
G1 X141.623 Y156.159 E0.10596
G1 X138.378 Y157.102 E0.10596
G1 X135.080 Y157.839 E0.10596
G1 X131.742 Y158.368 E0.10596
G1 X128.378 Y158.686 E0.10596
G1 X125.000 Y158.792 E0.10596
G1 X121.622 Y158.686 E0.10596
G1 X118.258 Y158.368 E0.10596
G1 X114.920 Y157.839 E0.10596
G1 X111.622 Y157.102 E0.10596
G1 X108.377 Y156.159 E0.10596
G1 X105.198 Y155.015 E0.10596
G1 X102.096 Y153.673 E0.10596
G1 X99.087 Y152.139 E0.10590
G1 X97.818 Y151.419 E0.04574
G1 X97.027 Y150.862 E0.03035
G1 X96.313 Y150.148 E0.03165
G1 X95.734 Y149.321 E0.03166
G1 X95.307 Y148.406 E0.03166
G1 X95.046 Y147.430 E0.03166
G1 X94.958 Y146.424 E0.03166
G1 X95.046 Y145.418 E0.03166
G1 X95.307 Y144.443 E0.03166
G1 X95.734 Y143.528 E0.03166
G1 X96.313 Y142.701 E0.03166
G1 X97.027 Y141.987 E0.03166
G1 X97.847 Y141.413 E0.03137
G1 X109.984 Y134.406 E0.43942
G1 X110.787 Y134.031 E0.02780
G1 X110.910 Y133.611 F7200.000
G1 F5760
G1 X111.866 Y133.721 E-0.38868
G1 F5760
G1 X112.872 Y133.633 E-0.34973
G1 F5760
G1 X112.934 Y133.639 E-0.02158
G1 E-0.04000 F2100.00000
G1 X123.251 Y115.178 F7200.000
G1 E0.80000 F2100.00000
G1 F1800
G1 X123.061 Y115.323 E0.00751
G1 X122.559 Y115.531 E0.01704
G1 X122.003 Y115.608 E0.01760
G1 X121.451 Y115.535 E0.01747
G1 X120.939 Y115.323 E0.01737
G1 X120.499 Y114.986 E0.01737
G1 X120.162 Y114.547 E0.01737
G1 X119.950 Y114.035 E0.01737
G1 X119.878 Y113.485 E0.01737
G1 X119.950 Y112.936 E0.01737
G1 X120.162 Y112.424 E0.01737
G1 X120.499 Y111.984 E0.01737
G1 X120.739 Y111.800 E0.00949
G1 X120.269 Y111.512 E0.01730
G1 X119.308 Y110.692 E0.03960
G1 X118.488 Y109.731 E0.03960
G1 X118.199 Y109.260 E0.01733
G1 X118.012 Y109.504 E0.00965
G1 X117.571 Y109.840 E0.01738
G1 X117.068 Y110.049 E0.01708
G1 X116.510 Y110.122 E0.01765
G1 X115.961 Y110.048 E0.01738
G1 X115.457 Y109.840 E0.01708
G1 X115.010 Y109.497 E0.01765
G1 X114.674 Y109.057 E0.01738
G1 X114.466 Y108.553 E0.01708
G1 X114.392 Y107.995 E0.01765
G1 X114.466 Y107.446 E0.01738
G1 X114.675 Y106.942 E0.01708
G1 X114.823 Y106.749 E0.00764
G1 X114.493 Y106.493 E0.01311
G1 X114.162 Y106.061 E0.01704
G1 X113.949 Y105.547 E0.01746
G1 X113.879 Y104.990 E0.01760
G1 X113.950 Y104.451 E0.01704
G1 X114.162 Y103.939 E0.01737
G1 X114.499 Y103.499 E0.01737
G1 X114.822 Y103.251 E0.01278
G1 X114.677 Y103.061 E0.00751
G1 X114.469 Y102.559 E0.01704
G1 X114.392 Y102.003 E0.01760
G1 X114.465 Y101.451 E0.01747
G1 X114.677 Y100.939 E0.01737
G1 X115.014 Y100.499 E0.01737
G1 X115.453 Y100.162 E0.01737
G1 X115.965 Y99.950 E0.01737
G1 X116.504 Y99.879 E0.01704
G1 X117.061 Y99.949 E0.01760
G1 X117.576 Y100.162 E0.01747
G1 X118.016 Y100.499 E0.01737
G1 X118.200 Y100.739 E0.00949
G1 X118.488 Y100.269 E0.01730
G1 X119.308 Y99.308 E0.03960
G1 X120.269 Y98.488 E0.03960
G1 X120.739 Y98.200 E0.01730
G1 X120.499 Y98.016 E0.00949
G1 X120.162 Y97.576 E0.01737
G1 X119.950 Y97.064 E0.01737
G1 X119.878 Y96.515 E0.01737
G1 X119.950 Y95.965 E0.01737
G1 X120.162 Y95.453 E0.01737
G1 X120.499 Y95.014 E0.01737
G1 X120.939 Y94.677 E0.01737
G1 X121.451 Y94.465 E0.01737
G1 X121.989 Y94.394 E0.01704
G1 X122.546 Y94.463 E0.01760
G1 X123.061 Y94.677 E0.01747
G1 X123.251 Y94.822 E0.00751
G1 X123.499 Y94.499 E0.01277
G1 X123.939 Y94.162 E0.01737
G1 X124.451 Y93.950 E0.01737
G1 X124.989 Y93.879 E0.01704
G1 X125.546 Y93.949 E0.01760
G1 X126.061 Y94.162 E0.01747
G1 X126.501 Y94.499 E0.01737
G1 X126.749 Y94.822 E0.01277
G1 X126.939 Y94.677 E0.00751
G1 X127.451 Y94.465 E0.01737
G1 X127.989 Y94.394 E0.01704
G1 X128.546 Y94.463 E0.01760
G1 X129.061 Y94.677 E0.01747
G1 X129.501 Y95.014 E0.01737
G1 X129.838 Y95.453 E0.01737
G1 X130.050 Y95.965 E0.01737
G1 X130.122 Y96.515 E0.01737
G1 X130.050 Y97.064 E0.01737
G1 X129.838 Y97.576 E0.01737
G1 X129.501 Y98.016 E0.01737
G1 X129.261 Y98.200 E0.00949
G1 X129.731 Y98.488 E0.01730
G1 X130.692 Y99.308 E0.03960
G1 X131.512 Y100.269 E0.03960
G1 X131.801 Y100.740 E0.01733
G1 X131.988 Y100.496 E0.00965
G1 X132.430 Y100.159 E0.01742
G1 X132.941 Y99.949 E0.01732
G1 X133.481 Y99.878 E0.01709
G1 X134.039 Y99.951 E0.01765
G1 X134.552 Y100.165 E0.01742
G1 X134.991 Y100.504 E0.01737
G1 X135.326 Y100.943 E0.01732
G1 X135.534 Y101.447 E0.01709
G1 X135.608 Y102.005 E0.01765
G1 X135.534 Y102.554 E0.01738
G1 X135.325 Y103.058 E0.01708
G1 X135.177 Y103.251 E0.00764
G1 X135.507 Y103.507 E0.01311
G1 X135.838 Y103.939 E0.01704
G1 X136.051 Y104.453 E0.01746
G1 X136.121 Y105.010 E0.01760
G1 X136.050 Y105.549 E0.01704
G1 X135.837 Y106.064 E0.01747
G1 X135.493 Y106.507 E0.01760
G1 X135.178 Y106.749 E0.01245
G1 X135.323 Y106.939 E0.00751
G1 X135.531 Y107.441 E0.01704
G1 X135.608 Y107.997 E0.01760
G1 X135.535 Y108.549 E0.01747
G1 X135.323 Y109.061 E0.01737
G1 X134.986 Y109.501 E0.01737
G1 X134.547 Y109.838 E0.01737
G1 X134.044 Y110.046 E0.01704
G1 X133.488 Y110.123 E0.01760
G1 X132.936 Y110.050 E0.01747
G1 X132.424 Y109.838 E0.01737
G1 X131.984 Y109.501 E0.01737
G1 X131.800 Y109.261 E0.00949
G1 X131.512 Y109.731 E0.01730
G1 X130.692 Y110.692 E0.03960
G1 X129.731 Y111.512 E0.03960
G1 X129.261 Y111.800 E0.01730
G1 X129.501 Y111.984 E0.00949
G1 X129.838 Y112.424 E0.01737
G1 X130.046 Y112.926 E0.01704
G1 X130.123 Y113.482 E0.01760
G1 X130.050 Y114.035 E0.01747
G1 X129.838 Y114.547 E0.01737
G1 X129.501 Y114.986 E0.01737
G1 X129.061 Y115.323 E0.01737
G1 X128.559 Y115.531 E0.01704
G1 X128.003 Y115.608 E0.01760
G1 X127.451 Y115.535 E0.01747
G1 X126.939 Y115.323 E0.01737
G1 X126.749 Y115.178 E0.00751
G1 X126.501 Y115.501 E0.01277
G1 X126.061 Y115.838 E0.01737
G1 X125.559 Y116.046 E0.01704
G1 X125.003 Y116.123 E0.01760
G1 X124.451 Y116.050 E0.01747
G1 X123.939 Y115.838 E0.01737
G1 X123.499 Y115.501 E0.01737
G1 X123.288 Y115.225 E0.01089
G1 X123.359 Y114.552 F7200.000
G1 F1800
G1 X123.232 Y114.717 E0.00654
G1 X122.871 Y114.994 E0.01426
G1 X122.460 Y115.164 E0.01397
G1 X122.002 Y115.228 E0.01449
G1 X121.549 Y115.168 E0.01432
G1 X121.129 Y114.994 E0.01426
G1 X120.768 Y114.717 E0.01426
G1 X120.491 Y114.356 E0.01426
G1 X120.317 Y113.936 E0.01426
G1 X120.258 Y113.485 E0.01426
G1 X120.317 Y113.034 E0.01426
G1 X120.491 Y112.614 E0.01426
G1 X120.768 Y112.253 E0.01426
G1 X121.129 Y111.977 E0.01426
G1 X121.499 Y111.823 E0.01255
G1 X120.491 Y111.206 E0.03705
G1 X119.576 Y110.424 E0.03774
G1 X118.794 Y109.509 E0.03774
G1 X118.177 Y108.502 E0.03704
G1 X118.025 Y108.867 E0.01242
G1 X117.743 Y109.235 E0.01452
G1 X117.382 Y109.511 E0.01426
G1 X116.969 Y109.681 E0.01399
G1 X116.510 Y109.742 E0.01452
G1 X116.060 Y109.681 E0.01426
G1 X115.647 Y109.510 E0.01399
G1 X115.280 Y109.229 E0.01452
G1 X115.004 Y108.867 E0.01426
G1 X114.833 Y108.455 E0.01399
G1 X114.773 Y107.996 E0.01452
G1 X114.833 Y107.545 E0.01426
G1 X115.004 Y107.133 E0.01399
G1 X115.286 Y106.765 E0.01452
G1 X115.449 Y106.641 E0.00641
G1 X115.127 Y106.508 E0.01090
G1 X114.763 Y106.225 E0.01449
G1 X114.491 Y105.871 E0.01397
G1 X114.317 Y105.449 E0.01432
G1 X114.259 Y104.991 E0.01449
G1 X114.317 Y104.549 E0.01397
G1 X114.491 Y104.129 E0.01426
G1 X114.768 Y103.768 E0.01426
G1 X115.130 Y103.490 E0.01432
G1 X115.450 Y103.360 E0.01083
G1 X115.283 Y103.232 E0.00660
