; generated by Slic3r Prusa Edition 1.39.1-prusa3d-win64 on 2018-05-01 at 20:01:17

; 

; external perimeters extrusion width = 0.45mm
; perimeters extrusion width = 0.45mm
; infill extrusion width = 0.45mm
; solid infill extrusion width = 0.45mm
; top infill extrusion width = 0.45mm
; first layer extrusion width = 0.42mm

M107
M115 U3.1.0 ; tell printer latest fw version
M201 X9000 Y9000 Z500 E10000 ; sets maximum accelerations, mm/sec^2
M203 X500 Y500 Z12 E120 ; sets maximum feedrates, mm/sec
M204 S1500 T1500 ; sets acceleration (S) and retract acceleration (T)
M205 X10 Y10 Z0.2 E2.5 ; sets the jerk limits, mm/sec
M205 S0 T0 ; sets the minimum extruding and travel feed rate, mm/sec
M83  ; extruder relative mode
M104 S230 ; set extruder temp
M140 S85 ; set bed temp
M190 S85 ; wait for bed temp
M109 S230 ; wait for extruder temp
G28 W ; home all without mesh bed level
G80 ; mesh bed leveling
G1 Y-3.0 F1000.0 ; go outside print area
G92 E0.0
G1 X60.0 E9.0  F1000.0 ; intro line
G1 X100.0 E12.5  F1000.0 ; intro line
G92 E0.0
M900 K45; Filament gcode
G21 ; set units to millimeters
G90 ; use absolute coordinates
M83 ; use relative distances for extrusion
;BEFORE_LAYER_CHANGE
;0.2


G1 E-0.80000 F2100.00000
G1 Z0.133 F7200.000
;AFTER_LAYER_CHANGE
;0.2
G1 Z0.733 F7200.000
G1 X108.596 Y80.259 F7200.000
G1 Z0.133 F7200.000
G1 E0.80000 F2100.00000
M204 S1000
G1 F1800
G1 X109.143 Y79.597 E0.02692
G1 X109.806 Y79.113 E0.02574
G1 X110.607 Y78.792 E0.02705
G1 X111.427 Y78.686 E0.02593
G1 X133.054 Y78.685 E0.67809
G1 X133.872 Y78.763 E0.02578
G1 X134.726 Y79.023 E0.02799
G1 X135.733 Y79.609 E0.03652
G1 X136.355 Y80.195 E0.02681
G1 X141.260 Y86.245 E0.24420
G1 X141.705 Y87.192 E0.03280
G1 X141.923 Y88.427 E0.03932
G1 X141.927 Y124.166 E1.12057
G1 X141.876 Y124.824 E0.02070
G1 X141.664 Y125.655 E0.02688
G1 X141.268 Y126.465 E0.02827
G1 X138.289 Y130.166 E0.14898
G1 X137.783 Y130.638 E0.02169
G1 X137.207 Y130.986 E0.02111
G1 X136.521 Y131.224 E0.02277
G1 X136.033 Y131.303 E0.01550
G1 X135.153 Y131.260 E0.02763
G1 X134.614 Y131.122 E0.01744
G1 X134.108 Y130.887 E0.01748
G1 X133.356 Y130.320 E0.02954
G1 X132.838 Y129.649 E0.02658
G1 X108.506 Y86.517 E1.55272
G1 X108.197 Y85.768 E0.02540
G1 X108.078 Y85.007 E0.02415
G1 X108.076 Y81.945 E0.09601
G1 X108.282 Y80.909 E0.03312
G1 X108.570 Y80.313 E0.02076
G1 F5760
G1 X109.143 Y79.597 E-0.31763
G1 F5760
G1 X109.806 Y79.113 E-0.28437
G1 F5760
G1 X110.229 Y78.943 E-0.15801
G1 E-0.04000 F2100.00000
G1 Z0.733 F7200.000
G1 X135.922 Y122.924 F7200.000
G1 Z0.133 F7200.000
G1 E0.80000 F2100.00000
G1 F1800
G1 X136.180 Y122.786 E0.00916
G1 X136.459 Y122.701 E0.00916
G1 X136.699 Y122.677 E0.00756
G1 X137.037 Y122.700 E0.01062
G1 X137.320 Y122.786 E0.00926
G1 X137.578 Y122.924 E0.00916
G1 X137.803 Y123.109 E0.00916
G1 X137.989 Y123.334 E0.00916
G1 X138.126 Y123.592 E0.00916
G1 X138.211 Y123.871 E0.00916
G1 X138.240 Y124.162 E0.00916
G1 X138.211 Y124.453 E0.00916
G1 X138.126 Y124.732 E0.00916
G1 X137.989 Y124.990 E0.00916
G1 X137.803 Y125.215 E0.00916
G1 X137.578 Y125.401 E0.00916
G1 X137.320 Y125.538 E0.00916
G1 X137.041 Y125.623 E0.00916
G1 X136.750 Y125.652 E0.00916
G1 X136.459 Y125.623 E0.00916
G1 X136.180 Y125.538 E0.00916
G1 X135.922 Y125.401 E0.00916
G1 X135.697 Y125.215 E0.00916
G1 X135.511 Y124.990 E0.00916
G1 X135.374 Y124.732 E0.00916
G1 X135.289 Y124.453 E0.00916
G1 X135.260 Y124.162 E0.00916
G1 X135.289 Y123.871 E0.00916
G1 X135.374 Y123.592 E0.00916
G1 X135.511 Y123.334 E0.00916
G1 X135.697 Y123.109 E0.00916
G1 X135.876 Y122.962 E0.00727
G1 X135.903 Y122.632 F7200.000
G1 F5760
G1 X136.180 Y122.786 E-0.12159
G1 F5760
G1 X136.459 Y122.701 E-0.10114
G1 F5760
G1 X136.699 Y122.677 E-0.08355
G1 F5760
G1 X137.037 Y122.700 E-0.11732
G1 F5760
G1 X137.320 Y122.786 E-0.10228
G1 F5760
G1 X137.578 Y122.924 E-0.10114
G1 F5760
G1 X137.803 Y123.109 E-0.10114
G1 F5760
G1 X137.862 Y123.180 E-0.03184
G1 E-0.04000 F2100.00000
G1 Z0.733 F7200.000
G1 X136.750 Y108.652 F7200.000
G1 Z0.133 F7200.000
G1 E0.80000 F2100.00000
G1 F1800
G1 X136.459 Y108.623 E0.00916
G1 X136.180 Y108.538 E0.00916
G1 X135.922 Y108.401 E0.00916
G1 X135.697 Y108.215 E0.00916
G1 X135.511 Y107.990 E0.00916
G1 X135.374 Y107.732 E0.00916
G1 X135.289 Y107.453 E0.00916
G1 X135.260 Y107.162 E0.00916
G1 X135.289 Y106.871 E0.00916
G1 X135.374 Y106.592 E0.00916
G1 X135.511 Y106.334 E0.00916
G1 X135.697 Y106.109 E0.00916
G1 X135.922 Y105.924 E0.00916
G1 X136.180 Y105.786 E0.00916
G1 X136.459 Y105.701 E0.00916
G1 X136.699 Y105.677 E0.00756
G1 X137.037 Y105.700 E0.01062
G1 X137.320 Y105.786 E0.00926
G1 X137.578 Y105.924 E0.00916
G1 X137.803 Y106.109 E0.00916
G1 X137.989 Y106.334 E0.00916
G1 X138.126 Y106.592 E0.00916
G1 X138.211 Y106.871 E0.00916
G1 X138.240 Y107.162 E0.00916
G1 X138.211 Y107.453 E0.00916
G1 X138.126 Y107.732 E0.00916
G1 X137.989 Y107.990 E0.00916
G1 X137.803 Y108.215 E0.00916
G1 X137.578 Y108.401 E0.00916
G1 X137.320 Y108.538 E0.00916
G1 X137.041 Y108.623 E0.00916
G1 X136.810 Y108.646 E0.00727
G1 X136.604 Y108.905 F7200.000
G1 F5760
G1 X136.459 Y108.623 E-0.12159
G1 F5760
G1 X136.180 Y108.538 E-0.10114
G1 F5760
G1 X135.922 Y108.401 E-0.10114
G1 F5760
G1 X135.697 Y108.215 E-0.10114
G1 F5760
G1 X135.511 Y107.990 E-0.10114
G1 F5760
G1 X135.374 Y107.732 E-0.10114
G1 F5760
G1 X135.289 Y107.453 E-0.10114
G1 F5760
G1 X135.280 Y107.362 E-0.03158
G1 E-0.04000 F2100.00000
G1 Z0.733 F7200.000
G1 X136.750 Y91.652 F7200.000
G1 Z0.133 F7200.000
G1 E0.80000 F2100.00000
G1 F1800
G1 X136.459 Y91.623 E0.00916
G1 X136.180 Y91.538 E0.00916
G1 X135.922 Y91.401 E0.00916
G1 X135.697 Y91.215 E0.00916
G1 X135.511 Y90.990 E0.00916
G1 X135.374 Y90.732 E0.00916
G1 X135.289 Y90.453 E0.00916
G1 X135.260 Y90.162 E0.00916
G1 X135.289 Y89.871 E0.00916
G1 X135.374 Y89.592 E0.00916
G1 X135.511 Y89.334 E0.00916
G1 X135.697 Y89.109 E0.00916
G1 X135.922 Y88.924 E0.00916
G1 X136.180 Y88.786 E0.00916
G1 X136.459 Y88.701 E0.00916
G1 X136.699 Y88.677 E0.00756
G1 X137.037 Y88.700 E0.01062
G1 X137.320 Y88.786 E0.00926
G1 X137.578 Y88.924 E0.00916
G1 X137.803 Y89.109 E0.00916
G1 X137.989 Y89.334 E0.00916
G1 X138.126 Y89.592 E0.00916
G1 X138.211 Y89.871 E0.00916
G1 X138.240 Y90.162 E0.00916
G1 X138.211 Y90.453 E0.00916
G1 X138.126 Y90.732 E0.00916
G1 X137.989 Y90.990 E0.00916
G1 X137.803 Y91.215 E0.00916
G1 X137.578 Y91.401 E0.00916
G1 X137.320 Y91.538 E0.00916
G1 X137.041 Y91.623 E0.00916
G1 X136.810 Y91.646 E0.00727
G1 X136.604 Y91.905 F7200.000
G1 F5760
G1 X136.459 Y91.623 E-0.12159
G1 F5760
G1 X136.180 Y91.538 E-0.10114
G1 F5760
G1 X135.922 Y91.401 E-0.10114
G1 F5760
G1 X135.697 Y91.215 E-0.10114
G1 F5760
G1 X135.511 Y90.990 E-0.10114
G1 F5760
G1 X135.374 Y90.732 E-0.10114
G1 F5760
G1 X135.289 Y90.453 E-0.10114
G1 F5760
G1 X135.280 Y90.362 E-0.03159
G1 E-0.04000 F2100.00000
G1 Z0.733 F7200.000
G1 X135.429 Y91.483 F7200.000
G1 Z0.133 F7200.000
G1 E0.80000 F2100.00000
G1 F1800
G1 X135.712 Y91.716 E0.01148
G1 X136.035 Y91.888 E0.01148
G1 X136.385 Y91.995 E0.01148
G1 X136.750 Y92.031 E0.01148
G1 X137.115 Y91.995 E0.01148
G1 X137.465 Y91.888 E0.01148
G1 X137.788 Y91.716 E0.01148
G1 X138.071 Y91.483 E0.01148
G1 X138.304 Y91.200 E0.01148
G1 X138.476 Y90.877 E0.01148
G1 X138.583 Y90.527 E0.01148
G1 X138.618 Y90.162 E0.01148
G1 X138.583 Y89.798 E0.01148
G1 X138.476 Y89.447 E0.01148
G1 X138.304 Y89.124 E0.01148
G1 X138.071 Y88.841 E0.01148
G1 X137.788 Y88.608 E0.01148
G1 X137.465 Y88.436 E0.01148
G1 X137.106 Y88.327 E0.01177
G1 X136.694 Y88.299 E0.01295
G1 X136.385 Y88.329 E0.00971
G1 X136.035 Y88.436 E0.01148
G1 X135.712 Y88.608 E0.01148
G1 X135.416 Y88.857 E0.01212
G1 X135.416 Y86.831 E0.06351
G1 X135.382 Y86.515 E0.00997
G1 X135.275 Y86.183 E0.01094
G1 X135.100 Y85.881 E0.01094
G1 X134.867 Y85.622 E0.01094
G1 X134.584 Y85.417 E0.01094
G1 X134.251 Y85.269 E0.01143
G1 X133.796 Y85.196 E0.01445
G1 X131.555 Y85.196 E0.07027
G1 X131.804 Y84.900 E0.01212
G1 X131.976 Y84.577 E0.01148
G1 X132.083 Y84.227 E0.01148
G1 X132.118 Y83.862 E0.01148
G1 X132.083 Y83.498 E0.01148
G1 X131.976 Y83.147 E0.01148
G1 X131.804 Y82.824 E0.01148
G1 X131.571 Y82.541 E0.01148
G1 X131.288 Y82.308 E0.01148
G1 X130.965 Y82.136 E0.01148
G1 X130.606 Y82.027 E0.01177
G1 X130.194 Y81.999 E0.01295
G1 X129.885 Y82.029 E0.00971
G1 X129.535 Y82.136 E0.01148
G1 X129.212 Y82.308 E0.01148
G1 X128.929 Y82.541 E0.01148
G1 X128.696 Y82.824 E0.01148
G1 X128.524 Y83.147 E0.01148
G1 X128.417 Y83.498 E0.01148
G1 X128.382 Y83.862 E0.01148
G1 X128.417 Y84.227 E0.01148
G1 X128.524 Y84.577 E0.01148
G1 X128.696 Y84.900 E0.01148
G1 X128.945 Y85.196 E0.01212
G1 X114.555 Y85.196 E0.45118
G1 X114.804 Y84.900 E0.01212
G1 X114.976 Y84.577 E0.01148
G1 X115.083 Y84.227 E0.01148
G1 X115.118 Y83.862 E0.01148
G1 X115.083 Y83.498 E0.01148
G1 X114.976 Y83.147 E0.01148
G1 X114.804 Y82.824 E0.01148
G1 X114.571 Y82.541 E0.01148
G1 X114.288 Y82.308 E0.01148
G1 X113.965 Y82.136 E0.01148
G1 X113.606 Y82.027 E0.01177
G1 X113.194 Y81.999 E0.01295
G1 X112.885 Y82.029 E0.00971
G1 X112.535 Y82.136 E0.01148
G1 X112.212 Y82.308 E0.01148
G1 X111.929 Y82.541 E0.01148
G1 X111.696 Y82.824 E0.01148
G1 X111.524 Y83.147 E0.01148
G1 X111.417 Y83.498 E0.01148
G1 X111.382 Y83.862 E0.01148
G1 X111.417 Y84.227 E0.01148
G1 X111.524 Y84.577 E0.01148
G1 X111.696 Y84.900 E0.01148
G1 X111.945 Y85.196 E0.01212
G1 X111.501 Y85.196 E0.01390
G1 X111.332 Y85.166 E0.00541
G1 X111.217 Y85.095 E0.00423
G1 X111.132 Y84.947 E0.00534
G1 X111.116 Y84.824 E0.00391
G1 X111.116 Y82.101 E0.08538
G1 X111.132 Y81.977 E0.00391
G1 X111.165 Y81.897 E0.00270
G1 X111.285 Y81.777 E0.00534
G1 X111.365 Y81.744 E0.00270
G1 X111.488 Y81.728 E0.00391
G1 X133.032 Y81.728 E0.67548
G1 X133.370 Y81.770 E0.01066
G1 X133.603 Y81.851 E0.00775
G1 X133.822 Y81.977 E0.00794
G1 X134.090 Y82.226 E0.01144
G1 X138.665 Y87.832 E0.22689
G1 X138.786 Y88.067 E0.00829
G1 X138.858 Y88.310 E0.00794
G1 X138.884 Y88.590 E0.00882
G1 X138.884 Y124.134 E1.11446
G1 X138.858 Y124.414 E0.00882
G1 X138.786 Y124.657 E0.00794
G1 X138.665 Y124.892 E0.00829
G1 X138.572 Y125.020 E0.00495
G1 X135.990 Y128.168 E0.12766
G1 X135.915 Y128.226 E0.00300
G1 X135.750 Y128.271 E0.00534
G1 X135.665 Y128.259 E0.00270
G1 X135.517 Y128.174 E0.00534
G1 X135.432 Y128.026 E0.00534
G1 X135.416 Y127.903 E0.00391
G1 X135.416 Y125.467 E0.07636
G1 X135.712 Y125.716 E0.01212
G1 X136.035 Y125.888 E0.01148
G1 X136.385 Y125.995 E0.01148
G1 X136.750 Y126.031 E0.01148
G1 X137.115 Y125.995 E0.01148
G1 X137.465 Y125.888 E0.01148
G1 X137.788 Y125.716 E0.01148
G1 X138.071 Y125.483 E0.01148
G1 X138.304 Y125.200 E0.01148
G1 X138.476 Y124.877 E0.01148
G1 X138.583 Y124.527 E0.01148
G1 X138.618 Y124.162 E0.01148
G1 X138.583 Y123.798 E0.01148
G1 X138.476 Y123.447 E0.01148
G1 X138.304 Y123.124 E0.01148
G1 X138.071 Y122.841 E0.01148
G1 X137.788 Y122.608 E0.01148
G1 X137.465 Y122.436 E0.01148
G1 X137.106 Y122.327 E0.01177
G1 X136.694 Y122.299 E0.01295
G1 X136.385 Y122.329 E0.00971
G1 X136.035 Y122.436 E0.01148
G1 X135.712 Y122.608 E0.01148
G1 X135.416 Y122.857 E0.01212
G1 X135.416 Y108.467 E0.45118
G1 X135.712 Y108.716 E0.01212
G1 X136.035 Y108.888 E0.01148
G1 X136.385 Y108.995 E0.01148
G1 X136.750 Y109.031 E0.01148
G1 X137.115 Y108.995 E0.01148
G1 X137.465 Y108.888 E0.01148
G1 X137.788 Y108.716 E0.01148
G1 X138.071 Y108.483 E0.01148
G1 X138.304 Y108.200 E0.01148
G1 X138.476 Y107.877 E0.01148
G1 X138.583 Y107.527 E0.01148
G1 X138.618 Y107.162 E0.01148
G1 X138.583 Y106.798 E0.01148
G1 X138.476 Y106.447 E0.01148
G1 X138.304 Y106.124 E0.01148
G1 X138.071 Y105.841 E0.01148
G1 X137.788 Y105.608 E0.01148
G1 X137.465 Y105.436 E0.01148
G1 X137.106 Y105.327 E0.01177
G1 X136.694 Y105.299 E0.01295
G1 X136.385 Y105.329 E0.00971
G1 X136.035 Y105.436 E0.01148
G1 X135.712 Y105.608 E0.01148
G1 X135.416 Y105.857 E0.01212
G1 X135.416 Y91.507 E0.44995
G1 F5760
G1 X135.712 Y91.716 E-0.12561
G1 F5760
G1 X136.035 Y91.888 E-0.12686
G1 F5760
G1 X136.385 Y91.995 E-0.12686
G1 F5760
G1 X136.750 Y92.031 E-0.12687
G1 F5760
G1 X137.115 Y91.995 E-0.12686
G1 F5760
G1 X137.465 Y91.888 E-0.12686
G1 F5760
G1 X137.465 Y91.888 E-0.00007
G1 E-0.04000 F2100.00000
G1 Z0.733 F7200.000
G1 X131.078 Y85.101 F7200.000
G1 Z0.133 F7200.000
G1 E0.80000 F2100.00000
G1 F1800
G1 X130.820 Y85.238 E0.00916
G1 X130.541 Y85.323 E0.00916
G1 X130.250 Y85.352 E0.00916
G1 X129.959 Y85.323 E0.00916
G1 X129.680 Y85.238 E0.00916
G1 X129.422 Y85.101 E0.00916
G1 X129.197 Y84.915 E0.00916
G1 X129.011 Y84.690 E0.00916
G1 X128.874 Y84.432 E0.00916
G1 X128.789 Y84.153 E0.00916
G1 X128.760 Y83.862 E0.00916
G1 X128.789 Y83.571 E0.00916
G1 X128.874 Y83.292 E0.00916
G1 X129.011 Y83.034 E0.00916
G1 X129.197 Y82.809 E0.00916
G1 X129.422 Y82.624 E0.00916
G1 X129.680 Y82.486 E0.00916
G1 X129.959 Y82.401 E0.00916
G1 X130.199 Y82.377 E0.00756
G1 X130.537 Y82.400 E0.01062
G1 X130.820 Y82.486 E0.00926
G1 X131.078 Y82.624 E0.00916
G1 X131.303 Y82.809 E0.00916
G1 X131.489 Y83.034 E0.00916
G1 X131.626 Y83.292 E0.00916
G1 X131.711 Y83.571 E0.00916
G1 X131.740 Y83.862 E0.00916
G1 X131.711 Y84.153 E0.00916
G1 X131.626 Y84.432 E0.00916
G1 X131.489 Y84.690 E0.00916
G1 X131.303 Y84.915 E0.00916
G1 X131.124 Y85.063 E0.00727
G1 X131.097 Y85.392 F7200.000
G1 F5760
G1 X130.820 Y85.238 E-0.12159
G1 F5760
G1 X130.541 Y85.323 E-0.10114
G1 F5760
G1 X130.250 Y85.352 E-0.10114
G1 F5760
G1 X129.959 Y85.323 E-0.10114
G1 F5760
G1 X129.680 Y85.238 E-0.10114
G1 F5760
G1 X129.422 Y85.101 E-0.10114
G1 F5760
G1 X129.197 Y84.915 E-0.10114
G1 F5760
G1 X129.139 Y84.845 E-0.03158
G1 E-0.04000 F2100.00000
G1 Z0.733 F7200.000
G1 X114.740 Y83.862 F7200.000
G1 Z0.133 F7200.000
G1 E0.80000 F2100.00000
G1 F1800
G1 X114.711 Y84.153 E0.00916
G1 X114.626 Y84.432 E0.00916
G1 X114.489 Y84.690 E0.00916
G1 X114.303 Y84.915 E0.00916
G1 X114.078 Y85.101 E0.00916
G1 X113.820 Y85.238 E0.00916
G1 X113.541 Y85.323 E0.00916
G1 X113.250 Y85.352 E0.00916
G1 X112.959 Y85.323 E0.00916
G1 X112.680 Y85.238 E0.00916
G1 X112.422 Y85.101 E0.00916
G1 X112.197 Y84.915 E0.00916
G1 X112.011 Y84.690 E0.00916
G1 X111.874 Y84.432 E0.00916
G1 X111.789 Y84.153 E0.00916
G1 X111.760 Y83.862 E0.00916
G1 X111.789 Y83.571 E0.00916
G1 X111.874 Y83.292 E0.00916
G1 X112.011 Y83.034 E0.00916
G1 X112.197 Y82.809 E0.00916
G1 X112.422 Y82.624 E0.00916
G1 X112.680 Y82.486 E0.00916
G1 X112.959 Y82.401 E0.00916
G1 X113.199 Y82.377 E0.00756
G1 X113.537 Y82.400 E0.01062
G1 X113.820 Y82.486 E0.00926
G1 X114.078 Y82.624 E0.00916
G1 X114.303 Y82.809 E0.00916
G1 X114.489 Y83.034 E0.00916
G1 X114.626 Y83.292 E0.00916
G1 X114.711 Y83.571 E0.00916
G1 X114.734 Y83.802 E0.00727
G1 X114.992 Y84.008 F7200.000
G1 F5760
G1 X114.711 Y84.153 E-0.12159
G1 F5760
G1 X114.626 Y84.432 E-0.10114
G1 F5760
G1 X114.489 Y84.690 E-0.10114
G1 F5760
G1 X114.303 Y84.915 E-0.10114
G1 F5760
G1 X114.078 Y85.101 E-0.10114
G1 F5760
G1 X113.820 Y85.238 E-0.10114
G1 F5760
G1 X113.541 Y85.323 E-0.10114
G1 F5760
G1 X113.450 Y85.332 E-0.03158
G1 E-0.04000 F2100.00000
G1 Z0.733 F7200.000
G1 X111.095 Y85.477 F7200.000
G1 Z0.133 F7200.000
G1 E0.80000 F2100.00000
G1 F1800
G1 X110.948 Y85.364 E0.00581
G1 X110.835 Y85.217 E0.00581
G1 X110.765 Y85.046 E0.00581
G1 X110.739 Y84.848 E0.00624
G1 X110.739 Y82.076 E0.08693
G1 X110.765 Y81.878 E0.00624
G1 X110.835 Y81.707 E0.00581
G1 X110.948 Y81.560 E0.00581
G1 X111.095 Y81.447 E0.00581
G1 X111.266 Y81.377 E0.00581
G1 X111.464 Y81.351 E0.00624
G1 X133.055 Y81.351 E0.67699
G1 X133.455 Y81.400 E0.01264
G1 X133.761 Y81.506 E0.01013
G1 X134.042 Y81.669 E0.01020
G1 X134.293 Y81.886 E0.01039
G1 X138.987 Y87.634 E0.23270
G1 X139.138 Y87.926 E0.01032
G1 X139.230 Y88.238 E0.01020
G1 X139.261 Y88.572 E0.01051
G1 X139.261 Y124.152 E1.11559
G1 X139.230 Y124.486 E0.01051
G1 X139.138 Y124.798 E0.01020
G1 X138.987 Y125.090 E0.01032
G1 X136.255 Y128.441 E0.13556
G1 X136.105 Y128.556 E0.00592
G1 X135.934 Y128.627 E0.00581
G1 X135.750 Y128.651 E0.00581
G1 X135.566 Y128.627 E0.00581
G1 X135.395 Y128.556 E0.00581
G1 X135.248 Y128.443 E0.00581
G1 X135.135 Y128.296 E0.00581
G1 X135.065 Y128.125 E0.00581
G1 X135.039 Y127.927 E0.00624
G1 X135.039 Y86.851 E1.28792
G1 X135.012 Y86.594 E0.00811
G1 X134.928 Y86.337 E0.00845
