; generated by Slic3r Prusa Edition 1.39.1-prusa3d-win64 on 2018-04-16 at 08:07:30

; 

; external perimeters extrusion width = 0.45mm
; perimeters extrusion width = 0.45mm
; infill extrusion width = 0.45mm
; solid infill extrusion width = 0.45mm
; top infill extrusion width = 0.45mm
; first layer extrusion width = 0.42mm

M107
M115 U3.1.0 ; tell printer latest fw version
M201 X9000 Y9000 Z500 E10000 ; sets maximum accelerations, mm/sec^2
M203 X500 Y500 Z12 E120 ; sets maximum feedrates, mm/sec
M204 S1500 T1500 ; sets acceleration (S) and retract acceleration (T)
M205 X10 Y10 Z0.2 E2.5 ; sets the jerk limits, mm/sec
M205 S0 T0 ; sets the minimum extruding and travel feed rate, mm/sec
M83  ; extruder relative mode
M104 S230 ; set extruder temp
M140 S85 ; set bed temp
M190 S85 ; wait for bed temp
M109 S230 ; wait for extruder temp
G28 W ; home all without mesh bed level
G80 ; mesh bed leveling
G1 Y-3.0 F1000.0 ; go outside print area
G92 E0.0
G1 X60.0 E9.0  F1000.0 ; intro line
G1 X100.0 E12.5  F1000.0 ; intro line
G92 E0.0
M900 K45; Filament gcode
G21 ; set units to millimeters
G90 ; use absolute coordinates
M83 ; use relative distances for extrusion
;BEFORE_LAYER_CHANGE
;0.2


G1 E-0.80000 F2100.00000
G1 Z0.133 F7200.000
;AFTER_LAYER_CHANGE
;0.2
G1 Z0.733 F7200.000
G1 X35.918 Y83.147 F7200.000
G1 Z0.133 F7200.000
G1 E0.80000 F2100.00000
M204 S1000
G1 F1800
G1 X37.391 Y82.557 E0.04976
G1 X40.182 Y81.759 E0.09100
G1 X41.696 Y81.491 E0.04821
G1 X43.248 Y81.330 E0.04893
G1 X50.304 Y81.279 E0.22124
G1 X51.806 Y81.333 E0.04712
G1 X53.306 Y81.491 E0.04730
G1 X54.791 Y81.753 E0.04726
G1 X56.253 Y82.118 E0.04726
G1 X57.687 Y82.583 E0.04726
G1 X59.084 Y83.148 E0.04726
G1 X60.439 Y83.809 E0.04726
G1 X61.744 Y84.562 E0.04726
G1 X62.994 Y85.405 E0.04726
G1 X64.181 Y86.333 E0.04726
G1 X65.301 Y87.342 E0.04726
G1 X66.348 Y88.426 E0.04726
G1 X67.317 Y89.581 E0.04726
G1 X68.203 Y90.800 E0.04726
G1 X69.002 Y92.079 E0.04726
G1 X69.708 Y93.406 E0.04714
G1 X70.351 Y94.861 E0.04988
G1 X70.839 Y96.206 E0.04487
G1 X71.252 Y97.648 E0.04702
G1 X71.579 Y99.205 E0.04988
G1 X71.878 Y102.050 E0.08969
G1 X71.896 Y122.886 E0.65329
G1 X71.767 Y125.205 E0.07283
G1 X71.270 Y128.026 E0.08981
G1 X70.810 Y129.626 E0.05222
G1 X70.320 Y130.968 E0.04480
G1 X69.709 Y132.342 E0.04714
G1 X69.003 Y133.669 E0.04714
G1 X68.246 Y134.884 E0.04487
G1 X67.268 Y136.229 E0.05215
G1 X66.345 Y137.328 E0.04499
G1 X65.306 Y138.404 E0.04690
G1 X64.118 Y139.468 E0.05000
G1 X61.756 Y141.180 E0.09148
G1 X60.364 Y141.979 E0.05031
G1 X59.079 Y142.604 E0.04480
G1 X57.689 Y143.166 E0.04702
G1 X56.174 Y143.653 E0.04988
G1 X53.335 Y144.254 E0.09100
G1 X51.810 Y144.416 E0.04809
G1 X50.303 Y144.470 E0.04725
G1 X44.643 Y144.470 E0.17748
G1 X41.705 Y144.260 E0.09234
G1 X40.214 Y143.998 E0.04750
G1 X38.751 Y143.633 E0.04726
G1 X37.317 Y143.168 E0.04726
G1 X35.990 Y142.633 E0.04487
G1 X34.572 Y141.946 E0.04941
G1 X33.328 Y141.230 E0.04499
G1 X31.943 Y140.296 E0.05239
G1 X30.816 Y139.414 E0.04487
G1 X29.696 Y138.405 E0.04726
G1 X28.652 Y137.324 E0.04714
G1 X27.683 Y136.169 E0.04726
G1 X26.797 Y134.949 E0.04726
G1 X26.001 Y133.674 E0.04714
G1 X25.293 Y132.344 E0.04726
G1 X24.693 Y130.999 E0.04618
G1 X24.162 Y129.543 E0.04857
G1 X23.730 Y128.024 E0.04952
G1 X23.235 Y125.214 E0.08945
G1 X23.121 Y123.662 E0.04881
G1 X23.105 Y102.864 E0.65210
G1 X23.233 Y100.545 E0.07283
G1 X23.730 Y97.728 E0.08969
G1 X24.164 Y96.198 E0.04988
G1 X24.677 Y94.788 E0.04702
G1 X25.257 Y93.484 E0.04475
G1 X26.002 Y92.074 E0.05000
G1 X26.796 Y90.802 E0.04702
G1 X27.634 Y89.646 E0.04475
G1 X28.653 Y88.425 E0.04988
G1 X29.698 Y87.343 E0.04714
G1 X30.757 Y86.387 E0.04475
G1 X32.027 Y85.391 E0.05060
G1 X34.490 Y83.849 E0.09112
G1 X35.864 Y83.174 E0.04800
G1 F5760
G1 X37.391 Y82.557 E-0.57043
G1 F5760
G1 X37.917 Y82.406 E-0.18957
G1 E-0.04000 F2100.00000
G1 Z0.733 F7200.000
G1 X59.134 Y94.210 F7200.000
G1 Z0.133 F7200.000
G1 E0.80000 F2100.00000
G1 F1800
G1 X61.566 Y91.727 E0.10898
G1 X64.933 Y92.592 E0.10898
G1 X65.866 Y95.940 E0.10898
G1 X63.434 Y98.423 E0.10898
G1 X60.068 Y97.557 E0.10898
G1 X59.150 Y94.267 E0.10710
G1 X58.848 Y93.930 F7200.000
G1 F5760
G1 X60.662 Y92.677 E-0.76000
G1 E-0.04000 F2100.00000
G1 Z0.733 F7200.000
G1 X61.449 Y125.308 F7200.000
G1 Z0.133 F7200.000
G1 E0.80000 F2100.00000
G1 F1800
G1 X65.237 Y126.281 E0.12263
G1 X66.288 Y130.049 E0.12263
G1 X63.551 Y132.842 E0.12263
G1 X59.763 Y131.868 E0.12263
G1 X58.712 Y128.101 E0.12263
G1 X61.407 Y125.350 E0.12075
G1 X61.566 Y125.727 F7200.000
G1 F1800
G1 X64.933 Y126.592 E0.10898
G1 X65.866 Y129.940 E0.10898
G1 X63.434 Y132.423 E0.10898
G1 X60.068 Y131.557 E0.10898
G1 X59.134 Y128.210 E0.10898
G1 X61.524 Y125.770 E0.10710
G1 X61.666 Y125.340 F7200.000
G1 F5760
G1 X63.658 Y126.285 E-0.76000
G1 E-0.04000 F2100.00000
G1 Z0.733 F7200.000
G1 X54.809 Y119.732 F7200.000
G1 Z0.133 F7200.000
G1 E0.80000 F2100.00000
G1 F1800
G1 X54.459 Y120.105 E0.01605
G1 X54.026 Y120.379 E0.01605
G1 X53.540 Y120.537 E0.01605
G1 X53.029 Y120.569 E0.01605
G1 X52.526 Y120.474 E0.01605
G1 X52.063 Y120.256 E0.01605
G1 X51.669 Y119.929 E0.01605
G1 X51.368 Y119.515 E0.01605
G1 X51.179 Y119.039 E0.01605
G1 X51.115 Y118.532 E0.01605
G1 X51.179 Y118.024 E0.01605
G1 X51.368 Y117.548 E0.01605
G1 X51.669 Y117.134 E0.01605
G1 X52.063 Y116.808 E0.01605
G1 X52.526 Y116.590 E0.01605
G1 X53.029 Y116.494 E0.01605
G1 X53.540 Y116.526 E0.01605
G1 X54.026 Y116.684 E0.01605
G1 X54.459 Y116.959 E0.01605
G1 X54.809 Y117.332 E0.01605
G1 X55.055 Y117.780 E0.01605
G1 X55.183 Y118.276 E0.01605
G1 X55.183 Y118.788 E0.01605
G1 X55.055 Y119.283 E0.01605
G1 X54.838 Y119.679 E0.01417
G1 X54.507 Y119.498 F7200.000
G1 F1800
G1 X54.216 Y119.812 E0.01344
G1 X53.865 Y120.035 E0.01306
G1 X53.468 Y120.164 E0.01306
G1 X53.053 Y120.190 E0.01306
G1 X52.644 Y120.112 E0.01306
G1 X52.267 Y119.935 E0.01306
G1 X51.946 Y119.669 E0.01306
G1 X51.701 Y119.332 E0.01306
G1 X51.548 Y118.945 E0.01306
G1 X51.495 Y118.532 E0.01306
G1 X51.548 Y118.118 E0.01306
G1 X51.701 Y117.731 E0.01306
G1 X51.946 Y117.394 E0.01306
G1 X52.267 Y117.129 E0.01306
G1 X52.644 Y116.951 E0.01306
G1 X53.053 Y116.873 E0.01306
G1 X53.468 Y116.899 E0.01306
G1 X53.865 Y117.028 E0.01306
G1 X54.216 Y117.251 E0.01306
G1 X54.501 Y117.555 E0.01306
G1 X54.702 Y117.920 E0.01306
G1 X54.806 Y118.323 E0.01306
G1 X54.806 Y118.740 E0.01306
G1 X54.702 Y119.143 E0.01306
G1 X54.536 Y119.445 E0.01079
G1 X54.672 Y119.862 F7200.000
G1 F5760
G1 X54.216 Y119.812 E-0.16866
G1 F5760
G1 X53.865 Y120.035 E-0.14426
G1 F5760
G1 X53.468 Y120.164 E-0.14427
G1 F5760
G1 X53.053 Y120.190 E-0.14426
G1 F5760
G1 X52.644 Y120.112 E-0.14426
G1 F5760
G1 X52.606 Y120.094 E-0.01429
G1 E-0.04000 F2100.00000
G1 Z0.733 F7200.000
G1 X55.372 Y114.913 F7200.000
G1 Z0.133 F7200.000
G1 E0.80000 F2100.00000
G1 F1800
G1 X54.869 Y114.817 E0.01605
G1 X54.406 Y114.599 E0.01605
G1 X54.012 Y114.273 E0.01605
G1 X53.711 Y113.858 E0.01605
G1 X53.523 Y113.383 E0.01605
G1 X53.458 Y112.875 E0.01605
G1 X53.523 Y112.367 E0.01605
G1 X53.711 Y111.891 E0.01605
G1 X54.012 Y111.477 E0.01605
G1 X54.406 Y111.151 E0.01605
G1 X54.869 Y110.933 E0.01605
G1 X55.372 Y110.837 E0.01605
G1 X55.883 Y110.869 E0.01605
G1 X56.370 Y111.027 E0.01605
G1 X56.802 Y111.302 E0.01605
G1 X57.152 Y111.675 E0.01605
G1 X57.399 Y112.123 E0.01605
G1 X57.526 Y112.619 E0.01605
G1 X57.526 Y113.131 E0.01605
G1 X57.399 Y113.626 E0.01605
G1 X57.152 Y114.075 E0.01605
G1 X56.802 Y114.448 E0.01605
G1 X56.370 Y114.722 E0.01605
G1 X55.883 Y114.880 E0.01605
G1 X55.432 Y114.909 E0.01417
G1 X55.408 Y114.532 F7200.000
G1 F1800
G1 X54.987 Y114.455 E0.01344
G1 X54.610 Y114.278 E0.01306
G1 X54.289 Y114.012 E0.01306
G1 X54.044 Y113.675 E0.01306
G1 X53.891 Y113.288 E0.01306
G1 X53.839 Y112.875 E0.01306
G1 X53.891 Y112.462 E0.01306
G1 X54.044 Y112.074 E0.01306
G1 X54.289 Y111.737 E0.01306
G1 X54.610 Y111.472 E0.01306
G1 X54.987 Y111.295 E0.01306
G1 X55.396 Y111.216 E0.01306
G1 X55.812 Y111.243 E0.01306
G1 X56.208 Y111.371 E0.01306
G1 X56.559 Y111.595 E0.01306
G1 X56.845 Y111.898 E0.01306
G1 X57.045 Y112.263 E0.01306
G1 X57.149 Y112.667 E0.01306
G1 X57.149 Y113.083 E0.01306
G1 X57.045 Y113.487 E0.01306
G1 X56.845 Y113.852 E0.01306
G1 X56.559 Y114.155 E0.01306
G1 X56.208 Y114.378 E0.01306
G1 X55.812 Y114.507 E0.01306
G1 X55.468 Y114.529 E0.01079
G1 X55.189 Y114.867 F7200.000
G1 F5760
G1 X54.987 Y114.455 E-0.16866
G1 F5760
G1 X54.610 Y114.278 E-0.14427
G1 F5760
G1 X54.289 Y114.012 E-0.14426
G1 F5760
G1 X54.044 Y113.675 E-0.14427
G1 F5760
G1 X53.891 Y113.288 E-0.14427
G1 F5760
G1 X53.886 Y113.247 E-0.01428
G1 E-0.04000 F2100.00000
G1 Z0.733 F7200.000
G1 X61.449 Y108.308 F7200.000
G1 Z0.133 F7200.000
G1 E0.80000 F2100.00000
G1 F1800
G1 X65.237 Y109.281 E0.12263
G1 X66.288 Y113.049 E0.12263
G1 X63.551 Y115.842 E0.12263
G1 X59.763 Y114.868 E0.12263
G1 X58.712 Y111.101 E0.12263
G1 X61.407 Y108.350 E0.12075
G1 X61.566 Y108.727 F7200.000
G1 F1800
G1 X64.933 Y109.592 E0.10898
G1 X65.866 Y112.940 E0.10898
G1 X63.434 Y115.423 E0.10898
G1 X60.068 Y114.557 E0.10898
G1 X59.134 Y111.210 E0.10898
G1 X61.524 Y108.770 E0.10710
G1 X61.666 Y108.340 F7200.000
G1 F5760
G1 X63.658 Y109.285 E-0.76000
G1 E-0.04000 F2100.00000
G1 Z0.733 F7200.000
G1 X55.183 Y107.474 F7200.000
G1 Z0.133 F7200.000
G1 E0.80000 F2100.00000
G1 F1800
G1 X55.055 Y107.970 E0.01605
G1 X54.809 Y108.418 E0.01605
G1 X54.459 Y108.791 E0.01605
G1 X54.026 Y109.065 E0.01605
G1 X53.540 Y109.224 E0.01605
G1 X53.029 Y109.256 E0.01605
G1 X52.526 Y109.160 E0.01605
G1 X52.063 Y108.942 E0.01605
G1 X51.669 Y108.616 E0.01605
G1 X51.368 Y108.202 E0.01605
G1 X51.179 Y107.726 E0.01605
G1 X51.115 Y107.218 E0.01605
G1 X51.179 Y106.710 E0.01605
G1 X51.368 Y106.234 E0.01605
G1 X51.669 Y105.820 E0.01605
G1 X52.063 Y105.494 E0.01605
G1 X52.526 Y105.276 E0.01605
G1 X53.029 Y105.180 E0.01605
G1 X53.540 Y105.212 E0.01605
G1 X54.026 Y105.371 E0.01605
G1 X54.459 Y105.645 E0.01605
G1 X54.809 Y106.018 E0.01605
G1 X55.055 Y106.466 E0.01605
G1 X55.183 Y106.962 E0.01605
G1 X55.183 Y107.414 E0.01417
G1 X54.806 Y107.414 F7200.000
G1 F1800
G1 X54.702 Y107.830 E0.01344
G1 X54.501 Y108.195 E0.01306
G1 X54.216 Y108.498 E0.01306
G1 X53.865 Y108.722 E0.01306
G1 X53.468 Y108.850 E0.01306
G1 X53.053 Y108.876 E0.01306
G1 X52.644 Y108.798 E0.01306
G1 X52.267 Y108.621 E0.01306
G1 X51.946 Y108.356 E0.01306
G1 X51.701 Y108.019 E0.01306
G1 X51.548 Y107.631 E0.01306
G1 X51.495 Y107.218 E0.01306
G1 X51.548 Y106.805 E0.01306
G1 X51.701 Y106.417 E0.01306
G1 X51.946 Y106.081 E0.01306
G1 X52.267 Y105.815 E0.01306
G1 X52.644 Y105.638 E0.01306
G1 X53.053 Y105.560 E0.01306
G1 X53.468 Y105.586 E0.01306
G1 X53.865 Y105.714 E0.01306
G1 X54.216 Y105.938 E0.01306
G1 X54.501 Y106.241 E0.01306
G1 X54.702 Y106.606 E0.01306
G1 X54.806 Y107.010 E0.01306
G1 X54.806 Y107.354 E0.01079
G1 X55.126 Y107.654 F7200.000
G1 F5760
G1 X54.702 Y107.830 E-0.16866
G1 F5760
G1 X54.501 Y108.195 E-0.14426
G1 F5760
G1 X54.216 Y108.498 E-0.14427
G1 F5760
G1 X53.865 Y108.722 E-0.14426
G1 F5760
G1 X53.468 Y108.850 E-0.14426
G1 F5760
G1 X53.427 Y108.853 E-0.01429
G1 E-0.04000 F2100.00000
G1 Z0.733 F7200.000
G1 X49.399 Y105.626 F7200.000
G1 Z0.133 F7200.000
G1 E0.80000 F2100.00000
G1 F1800
G1 X49.152 Y106.075 E0.01605
G1 X48.802 Y106.448 E0.01605
G1 X48.370 Y106.722 E0.01605
G1 X47.883 Y106.880 E0.01605
G1 X47.372 Y106.913 E0.01605
G1 X46.869 Y106.817 E0.01605
G1 X46.406 Y106.599 E0.01605
G1 X46.012 Y106.273 E0.01605
G1 X45.711 Y105.858 E0.01605
G1 X45.523 Y105.383 E0.01605
G1 X45.458 Y104.875 E0.01605
G1 X45.523 Y104.367 E0.01605
G1 X45.711 Y103.891 E0.01605
G1 X46.012 Y103.477 E0.01605
G1 X46.406 Y103.151 E0.01605
G1 X46.869 Y102.933 E0.01605
G1 X47.372 Y102.837 E0.01605
G1 X47.883 Y102.869 E0.01605
G1 X48.370 Y103.027 E0.01605
G1 X48.802 Y103.302 E0.01605
G1 X49.152 Y103.675 E0.01605
G1 X49.399 Y104.123 E0.01605
G1 X49.526 Y104.619 E0.01605
G1 X49.526 Y105.131 E0.01605
G1 X49.414 Y105.568 E0.01417
G1 X49.048 Y105.475 F7200.000
G1 F1800
G1 X48.845 Y105.852 E0.01344
G1 X48.559 Y106.155 E0.01306
G1 X48.208 Y106.378 E0.01306
G1 X47.812 Y106.507 E0.01306
G1 X47.396 Y106.533 E0.01306
G1 X46.987 Y106.455 E0.01306
G1 X46.610 Y106.278 E0.01306
G1 X46.289 Y106.012 E0.01306
G1 X46.044 Y105.675 E0.01306
G1 X45.891 Y105.288 E0.01306
G1 X45.839 Y104.875 E0.01306
G1 X45.891 Y104.462 E0.01306
G1 X46.044 Y104.074 E0.01306
G1 X46.289 Y103.737 E0.01306
G1 X46.610 Y103.472 E0.01306
G1 X46.987 Y103.295 E0.01306
G1 X47.396 Y103.216 E0.01306
G1 X47.812 Y103.243 E0.01306
G1 X48.208 Y103.371 E0.01306
G1 X48.559 Y103.595 E0.01306
G1 X48.845 Y103.898 E0.01306
G1 X49.045 Y104.263 E0.01306
G1 X49.149 Y104.667 E0.01306
G1 X49.149 Y105.083 E0.01306
G1 X49.063 Y105.416 E0.01079
G1 X49.298 Y105.787 F7200.000
G1 F5760
G1 X48.845 Y105.852 E-0.16866
G1 F5760
G1 X48.559 Y106.155 E-0.14427
G1 F5760
G1 X48.208 Y106.378 E-0.14426
G1 F5760
G1 X47.812 Y106.507 E-0.14426
G1 F5760
G1 X47.396 Y106.533 E-0.14426
G1 F5760
G1 X47.355 Y106.526 E-0.01429
G1 E-0.04000 F2100.00000
G1 Z0.733 F7200.000
G1 X48.709 Y107.427 F7200.000
G1 Z0.133 F7200.000
G1 E0.80000 F2100.00000
G1 F1800
G1 X48.852 Y107.452 E0.00457
G1 X49.594 Y107.693 E0.02445
G1 X50.294 Y108.035 E0.02445
G1 X50.941 Y108.471 E0.02445
G1 X51.520 Y108.993 E0.02445
G1 X52.021 Y109.590 E0.02445
G1 X52.435 Y110.251 E0.02445
G1 X52.752 Y110.963 E0.02445
G1 X52.963 Y111.701 E0.02406
G1 X53.075 Y112.484 E0.02481
G1 X53.075 Y113.265 E0.02447
G1 X52.967 Y114.037 E0.02445
G1 X52.752 Y114.786 E0.02445
G1 X52.435 Y115.499 E0.02445
G1 X52.021 Y116.160 E0.02445
G1 X51.528 Y116.748 E0.02406
G1 X50.941 Y117.278 E0.02481
G1 X50.294 Y117.715 E0.02447
G1 X49.594 Y118.056 E0.02445
G1 X48.864 Y118.294 E0.02406
G1 X48.085 Y118.433 E0.02481
G1 X47.305 Y118.460 E0.02447
G1 X46.542 Y118.380 E0.02406
G1 X45.774 Y118.190 E0.02481
G1 X45.050 Y117.898 E0.02447
G1 X44.375 Y117.508 E0.02445
G1 X43.761 Y117.028 E0.02445
G1 X43.219 Y116.467 E0.02445
G1 X42.761 Y115.836 E0.02445
G1 X42.401 Y115.159 E0.02406
G1 X42.128 Y114.416 E0.02481
G1 X41.966 Y113.653 E0.02447
G1 X41.912 Y112.875 E0.02445
G1 X41.965 Y112.109 E0.02406
G1 X42.128 Y111.335 E0.02481
G1 X42.395 Y110.602 E0.02447
G1 X42.761 Y109.913 E0.02445
G1 X43.219 Y109.283 E0.02445
G1 X43.761 Y108.722 E0.02445
G1 X44.375 Y108.242 E0.02445
G1 X45.050 Y107.852 E0.02445
G1 X45.773 Y107.560 E0.02445
G1 X46.530 Y107.371 E0.02445
G1 X47.293 Y107.291 E0.02406
G1 X48.084 Y107.317 E0.02481
G1 X48.650 Y107.417 E0.01802
G1 X48.584 Y107.788 F7200.000
G1 F1800
G1 X48.761 Y107.819 E0.00562
G1 X49.452 Y108.044 E0.02279
G1 X50.105 Y108.362 E0.02279
G1 X50.708 Y108.769 E0.02279
G1 X51.248 Y109.255 E0.02279
G1 X51.716 Y109.812 E0.02279
G1 X52.101 Y110.429 E0.02279
G1 X52.397 Y111.093 E0.02279
G1 X52.594 Y111.780 E0.02242
G1 X52.698 Y112.511 E0.02315
G1 X52.698 Y113.238 E0.02280
G1 X52.597 Y113.958 E0.02279
G1 X52.397 Y114.657 E0.02279
G1 X52.101 Y115.321 E0.02279
G1 X51.716 Y115.938 E0.02279
G1 X51.256 Y116.485 E0.02242
G1 X50.708 Y116.981 E0.02315
G1 X50.105 Y117.387 E0.02280
G1 X49.452 Y117.706 E0.02279
G1 X48.772 Y117.927 E0.02242
G1 X48.045 Y118.057 E0.02315
G1 X47.318 Y118.082 E0.02280
G1 X46.607 Y118.007 E0.02242
G1 X45.890 Y117.830 E0.02315
G1 X45.216 Y117.558 E0.02280
G1 X44.587 Y117.195 E0.02279
G1 X44.014 Y116.747 E0.02279
G1 X43.509 Y116.224 E0.02279
G1 X43.081 Y115.636 E0.02279
G1 X42.746 Y115.005 E0.02242
G1 X42.492 Y114.311 E0.02315
G1 X42.340 Y113.600 E0.02280
G1 X42.290 Y112.875 E0.02279
G1 X42.340 Y112.162 E0.02242
G1 X42.491 Y111.439 E0.02315
G1 X42.740 Y110.756 E0.02280
G1 X43.081 Y110.114 E0.02279
G1 X43.509 Y109.526 E0.02279
G1 X44.014 Y109.003 E0.02279
G1 X44.587 Y108.555 E0.02279
G1 X45.216 Y108.192 E0.02279
G1 X45.890 Y107.919 E0.02279
G1 X46.595 Y107.744 E0.02279
G1 X47.307 Y107.669 E0.02242
G1 X48.045 Y107.693 E0.02315
G1 X48.525 Y107.778 E0.01529
G1 X48.696 Y107.647 F7200.000
G1 F5760
G1 X48.761 Y107.819 E-0.08291
G1 F5760
G1 X49.452 Y108.044 E-0.25178
G1 F5760
G1 X50.105 Y108.362 E-0.25178
G1 F5760
G1 X50.521 Y108.643 E-0.17354
G1 E-0.04000 F2100.00000
G1 Z0.733 F7200.000
G1 X43.869 Y107.474 F7200.000
G1 Z0.133 F7200.000
G1 E0.80000 F2100.00000
G1 F1800
