; generated by Slic3r Prusa Edition 1.39.1-prusa3d-win64 on 2018-05-11 at 13:05:22

; 

; external perimeters extrusion width = 0.45mm
; perimeters extrusion width = 0.45mm
; infill extrusion width = 0.45mm
; solid infill extrusion width = 0.45mm
; top infill extrusion width = 0.45mm
; first layer extrusion width = 0.42mm

M107
M115 U3.1.0 ; tell printer latest fw version
M201 X9000 Y9000 Z500 E10000 ; sets maximum accelerations, mm/sec^2
M203 X500 Y500 Z12 E120 ; sets maximum feedrates, mm/sec
M204 S1500 T1500 ; sets acceleration (S) and retract acceleration (T)
M205 X10 Y10 Z0.2 E2.5 ; sets the jerk limits, mm/sec
M205 S0 T0 ; sets the minimum extruding and travel feed rate, mm/sec
M83  ; extruder relative mode
M104 S230 ; set extruder temp
M140 S85 ; set bed temp
M190 S85 ; wait for bed temp
M109 S230 ; wait for extruder temp
G28 W ; home all without mesh bed level
G80 ; mesh bed leveling
G1 Y-3.0 F1000.0 ; go outside print area
G92 E0.0
G1 X60.0 E9.0  F1000.0 ; intro line
G1 X100.0 E12.5  F1000.0 ; intro line
G92 E0.0
M900 K45; Filament gcode
G21 ; set units to millimeters
G90 ; use absolute coordinates
M83 ; use relative distances for extrusion
;BEFORE_LAYER_CHANGE
;0.2


G1 E-0.80000 F2100.00000
G1 Z0.600 F7200.000
;AFTER_LAYER_CHANGE
;0.2
G1 X99.841 Y69.634 F7200.000
G1 Z0.200 F7200.000
G1 E0.80000 F2100.00000
M204 S1000
G1 F1800
G1 X100.759 Y68.404 E0.04813
G1 X101.385 Y67.710 E0.02931
G1 X102.508 Y66.672 E0.04797
G1 X103.745 Y65.769 E0.04801
G1 X104.543 Y65.292 E0.02915
G1 X105.931 Y64.627 E0.04825
G1 X107.382 Y64.128 E0.04813
G1 X108.285 Y63.908 E0.02915
G1 X109.804 Y63.682 E0.04813
G1 X111.334 Y63.634 E0.04801
G1 X112.258 Y63.688 E0.02903
G1 X113.712 Y63.907 E0.04610
G1 X115.391 Y64.370 E0.05460
G1 X117.522 Y65.326 E0.07323
G1 X118.807 Y66.144 E0.04777
G1 X119.534 Y66.705 E0.02879
G1 X120.629 Y67.720 E0.04681
G1 X148.639 Y95.728 E1.24196
G1 X149.243 Y96.401 E0.02835
G1 X150.161 Y97.631 E0.04813
G1 X150.931 Y98.959 E0.04813
G1 X151.321 Y99.802 E0.02914
G1 X151.835 Y101.245 E0.04801
G1 X152.180 Y102.740 E0.04813
G1 X152.305 Y103.662 E0.02914
G1 X152.371 Y105.172 E0.04741
G1 X152.329 Y106.063 E0.02795
G1 X152.121 Y107.580 E0.04801
G1 X151.450 Y109.878 E0.07506
G1 X150.379 Y112.023 E0.07518
G1 X148.977 Y113.901 E0.07351
G1 X120.397 Y142.510 E1.26792
G1 X118.531 Y144.045 E0.07577
G1 X117.218 Y144.833 E0.04801
G1 X116.375 Y145.238 E0.02931
G1 X114.942 Y145.773 E0.04797
G1 X113.452 Y146.139 E0.04813
G1 X112.532 Y146.278 E0.02915
G1 X110.993 Y146.366 E0.04834
G1 X108.612 Y146.151 E0.07496
G1 X106.308 Y145.516 E0.07494
G1 X104.147 Y144.477 E0.07518
G1 X102.256 Y143.110 E0.07315
G1 X101.016 Y141.888 E0.05460
G1 X100.100 Y140.739 E0.04606
G1 X99.591 Y139.966 E0.02903
G1 X98.550 Y137.874 E0.07327
G1 X97.878 Y135.568 E0.07529
G1 X97.671 Y134.059 E0.04777
G1 X97.629 Y133.169 E0.02795
G1 X97.629 Y77.156 E1.75625
G1 X97.695 Y75.664 E0.04681
G1 X97.821 Y74.742 E0.02919
G1 X98.164 Y73.251 E0.04797
G1 X98.681 Y71.801 E0.04825
G1 X99.070 Y70.962 E0.02903
G1 X99.810 Y69.686 E0.04625
G1 F5760
G1 X100.759 Y68.404 E-0.55228
G1 F5760
G1 X101.160 Y67.958 E-0.20772
G1 E-0.04000 F2100.00000
G1 Z0.800 F7200.000
G1 X110.425 Y110.986 F7200.000
G1 Z0.200 F7200.000
G1 E0.80000 F2100.00000
G1 F1800
G1 X110.850 Y110.914 E0.01350
G1 X111.285 Y110.925 E0.01365
G1 X111.590 Y110.991 E0.00980
G1 X111.870 Y111.095 E0.00936
G1 X112.132 Y111.238 E0.00936
G1 X112.371 Y111.417 E0.00936
G1 X112.591 Y111.638 E0.00979
G1 X112.833 Y111.994 E0.01350
G1 X113.005 Y112.394 E0.01365
G1 X113.074 Y112.713 E0.01024
G1 X113.085 Y113.144 E0.01350
G1 X113.013 Y113.573 E0.01365
G1 X112.899 Y113.879 E0.01024
G1 X112.675 Y114.247 E0.01350
G1 X112.382 Y114.569 E0.01365
G1 X112.132 Y114.757 E0.00980
G1 X111.870 Y114.900 E0.00936
G1 X111.590 Y115.004 E0.00936
G1 X111.285 Y115.070 E0.00979
G1 X110.855 Y115.081 E0.01350
G1 X110.425 Y115.009 E0.01365
G1 X110.132 Y114.900 E0.00980
G1 X109.871 Y114.757 E0.00936
G1 X109.632 Y114.578 E0.00936
G1 X109.411 Y114.357 E0.00979
G1 X109.169 Y114.001 E0.01350
G1 X108.998 Y113.601 E0.01365
G1 X108.928 Y113.282 E0.01024
G1 X108.918 Y112.851 E0.01350
G1 X108.990 Y112.422 E0.01365
G1 X109.099 Y112.129 E0.00980
G1 X109.242 Y111.867 E0.00936
G1 X109.429 Y111.617 E0.00979
G1 X109.747 Y111.327 E0.01350
G1 X110.119 Y111.100 E0.01365
G1 X110.369 Y111.007 E0.00836
G1 X110.501 Y111.360 F7200.000
G1 F1800
G1 X110.877 Y111.292 E0.01199
G1 X111.240 Y111.301 E0.01139
G1 X111.484 Y111.354 E0.00782
G1 X111.713 Y111.439 E0.00766
G1 X111.927 Y111.556 E0.00766
G1 X112.123 Y111.703 E0.00766
G1 X112.299 Y111.879 E0.00782
G1 X112.501 Y112.176 E0.01125
G1 X112.644 Y112.510 E0.01139
G1 X112.698 Y112.759 E0.00798
G1 X112.707 Y113.117 E0.01125
G1 X112.647 Y113.475 E0.01139
G1 X112.558 Y113.714 E0.00798
G1 X112.371 Y114.020 E0.01125
G1 X112.127 Y114.289 E0.01139
G1 X111.927 Y114.439 E0.00782
G1 X111.713 Y114.556 E0.00766
G1 X111.484 Y114.641 E0.00766
G1 X111.240 Y114.694 E0.00782
G1 X110.882 Y114.703 E0.01125
G1 X110.523 Y114.643 E0.01139
G1 X110.290 Y114.556 E0.00782
G1 X110.075 Y114.439 E0.00766
G1 X109.879 Y114.292 E0.00766
G1 X109.703 Y114.116 E0.00782
G1 X109.502 Y113.819 E0.01125
G1 X109.358 Y113.485 E0.01139
G1 X109.304 Y113.237 E0.00798
G1 X109.296 Y112.878 E0.01125
G1 X109.356 Y112.520 E0.01139
G1 X109.443 Y112.286 E0.00782
G1 X109.560 Y112.071 E0.00766
G1 X109.709 Y111.872 E0.00782
G1 X109.975 Y111.630 E0.01125
G1 X110.285 Y111.441 E0.01139
G1 X110.444 Y111.381 E0.00534
G1 X110.594 Y110.990 F7200.000
G1 F5760
G1 X110.877 Y111.292 E-0.15294
G1 F5760
G1 X111.240 Y111.301 E-0.12583
G1 F5760
G1 X111.484 Y111.354 E-0.08643
G1 F5760
G1 X111.713 Y111.439 E-0.08466
G1 F5760
G1 X111.927 Y111.556 E-0.08466
G1 F5760
G1 X112.123 Y111.703 E-0.08466
G1 F5760
G1 X112.299 Y111.879 E-0.08638
G1 F5760
G1 X112.388 Y112.009 E-0.05444
G1 E-0.04000 F2100.00000
G1 Z0.800 F7200.000
G1 X107.348 Y111.257 F7200.000
G1 Z0.200 F7200.000
G1 E0.80000 F2100.00000
G1 F1800
G1 X107.179 Y111.653 E0.01350
G1 X106.935 Y112.014 E0.01365
G1 X106.704 Y112.245 E0.01024
G1 X106.348 Y112.486 E0.01350
G1 X105.947 Y112.658 E0.01365
G1 X105.642 Y112.724 E0.00980
G1 X105.344 Y112.746 E0.00936
G1 X105.047 Y112.724 E0.00936
G1 X104.755 Y112.661 E0.00936
G1 X104.463 Y112.552 E0.00979
G1 X104.095 Y112.328 E0.01350
G1 X103.772 Y112.035 E0.01365
G1 X103.585 Y111.785 E0.00980
G1 X103.442 Y111.523 E0.00936
G1 X103.338 Y111.244 E0.00936
G1 X103.274 Y110.952 E0.00936
G1 X103.253 Y110.654 E0.00936
G1 X103.274 Y110.357 E0.00936
G1 X103.338 Y110.065 E0.00936
G1 X103.442 Y109.786 E0.00936
G1 X103.585 Y109.524 E0.00936
G1 X103.764 Y109.285 E0.00936
G1 X103.975 Y109.074 E0.00936
G1 X104.214 Y108.895 E0.00936
G1 X104.476 Y108.752 E0.00936
G1 X104.768 Y108.643 E0.00979
G1 X105.193 Y108.571 E0.01350
G1 X105.628 Y108.581 E0.01365
G1 X105.934 Y108.648 E0.00980
G1 X106.213 Y108.752 E0.00936
G1 X106.475 Y108.895 E0.00936
G1 X106.714 Y109.074 E0.00936
G1 X106.925 Y109.285 E0.00936
G1 X107.104 Y109.524 E0.00936
G1 X107.247 Y109.786 E0.00936
G1 X107.351 Y110.065 E0.00936
G1 X107.414 Y110.357 E0.00936
G1 X107.436 Y110.654 E0.00936
G1 X107.414 Y110.952 E0.00936
G1 X107.361 Y111.198 E0.00791
G1 X106.992 Y111.118 F7200.000
G1 F1800
G1 X106.846 Y111.472 E0.01199
G1 X106.643 Y111.773 E0.01139
G1 X106.463 Y111.953 E0.00798
G1 X106.166 Y112.154 E0.01125
G1 X105.832 Y112.297 E0.01139
G1 X105.588 Y112.350 E0.00782
G1 X105.344 Y112.368 E0.00766
G1 X105.101 Y112.350 E0.00766
G1 X104.862 Y112.298 E0.00766
G1 X104.628 Y112.211 E0.00782
G1 X104.322 Y112.025 E0.01125
G1 X104.053 Y111.780 E0.01139
G1 X103.903 Y111.581 E0.00782
G1 X103.786 Y111.366 E0.00766
G1 X103.701 Y111.137 E0.00766
G1 X103.649 Y110.898 E0.00766
G1 X103.631 Y110.654 E0.00766
G1 X103.649 Y110.411 E0.00766
G1 X103.701 Y110.172 E0.00766
G1 X103.786 Y109.943 E0.00766
G1 X103.903 Y109.728 E0.00766
G1 X104.050 Y109.532 E0.00766
G1 X104.222 Y109.360 E0.00766
G1 X104.418 Y109.213 E0.00766
G1 X104.633 Y109.096 E0.00766
G1 X104.866 Y109.009 E0.00782
G1 X105.220 Y108.949 E0.01125
G1 X105.583 Y108.958 E0.01139
G1 X105.827 Y109.011 E0.00782
G1 X106.056 Y109.096 E0.00766
G1 X106.271 Y109.213 E0.00766
G1 X106.466 Y109.360 E0.00766
G1 X106.639 Y109.532 E0.00766
G1 X106.786 Y109.728 E0.00766
G1 X106.903 Y109.943 E0.00766
G1 X106.988 Y110.172 E0.00766
G1 X107.040 Y110.411 E0.00766
G1 X107.058 Y110.654 E0.00766
G1 X107.040 Y110.898 E0.00766
G1 X107.005 Y111.060 E0.00518
G1 X107.250 Y111.401 F7200.000
G1 F5760
G1 X106.846 Y111.472 E-0.15294
G1 F5760
G1 X106.643 Y111.773 E-0.12583
G1 F5760
G1 X106.463 Y111.953 E-0.08815
G1 F5760
G1 X106.166 Y112.154 E-0.12422
G1 F5760
G1 X105.832 Y112.297 E-0.12583
G1 F5760
G1 X105.588 Y112.350 E-0.08643
G1 F5760
G1 X105.425 Y112.362 E-0.05660
G1 E-0.04000 F2100.00000
G1 Z0.800 F7200.000
G1 X104.005 Y106.829 F7200.000
G1 Z0.200 F7200.000
G1 E0.80000 F2100.00000
G1 F1800
G1 X103.604 Y107.001 E0.01365
G1 X103.299 Y107.068 E0.00980
G1 X103.001 Y107.089 E0.00936
G1 X102.704 Y107.068 E0.00936
G1 X102.412 Y107.004 E0.00936
G1 X102.132 Y106.900 E0.00936
G1 X101.871 Y106.757 E0.00936
G1 X101.632 Y106.578 E0.00936
G1 X101.411 Y106.357 E0.00979
G1 X101.169 Y106.001 E0.01350
G1 X100.998 Y105.601 E0.01365
G1 X100.931 Y105.295 E0.00980
G1 X100.910 Y104.998 E0.00936
G1 X100.931 Y104.700 E0.00936
G1 X100.995 Y104.408 E0.00936
G1 X101.099 Y104.129 E0.00936
G1 X101.242 Y103.867 E0.00936
G1 X101.429 Y103.617 E0.00979
G1 X101.747 Y103.327 E0.01350
G1 X102.119 Y103.100 E0.01365
G1 X102.425 Y102.986 E0.01024
G1 X102.850 Y102.914 E0.01350
G1 X103.285 Y102.925 E0.01365
G1 X103.590 Y102.991 E0.00980
G1 X103.870 Y103.095 E0.00936
G1 X104.132 Y103.238 E0.00936
G1 X104.371 Y103.417 E0.00936
G1 X104.582 Y103.628 E0.00936
G1 X104.761 Y103.867 E0.00936
G1 X104.904 Y104.129 E0.00936
G1 X105.008 Y104.408 E0.00936
G1 X105.071 Y104.700 E0.00936
G1 X105.092 Y104.998 E0.00936
G1 X105.071 Y105.295 E0.00936
G1 X105.008 Y105.587 E0.00936
G1 X104.904 Y105.866 E0.00936
G1 X104.761 Y106.128 E0.00936
G1 X104.582 Y106.367 E0.00936
G1 X104.361 Y106.588 E0.00979
G1 X104.054 Y106.796 E0.01162
G1 X103.843 Y106.484 F7200.000
G1 F1800
G1 X103.489 Y106.640 E0.01213
G1 X103.245 Y106.693 E0.00782
G1 X103.001 Y106.711 E0.00766
G1 X102.757 Y106.693 E0.00766
G1 X102.519 Y106.641 E0.00766
G1 X102.290 Y106.556 E0.00766
G1 X102.075 Y106.439 E0.00766
G1 X101.879 Y106.292 E0.00766
G1 X101.703 Y106.116 E0.00782
G1 X101.502 Y105.819 E0.01125
G1 X101.358 Y105.485 E0.01139
G1 X101.305 Y105.241 E0.00782
G1 X101.288 Y104.998 E0.00766
G1 X101.305 Y104.754 E0.00766
G1 X101.357 Y104.515 E0.00766
G1 X101.443 Y104.286 E0.00766
G1 X101.560 Y104.071 E0.00766
G1 X101.709 Y103.872 E0.00782
G1 X101.975 Y103.630 E0.01125
G1 X102.285 Y103.441 E0.01139
G1 X102.523 Y103.352 E0.00798
G1 X102.877 Y103.292 E0.01125
G1 X103.240 Y103.301 E0.01139
G1 X103.484 Y103.354 E0.00782
G1 X103.713 Y103.439 E0.00766
G1 X103.927 Y103.556 E0.00766
G1 X104.123 Y103.703 E0.00766
G1 X104.296 Y103.876 E0.00766
G1 X104.442 Y104.071 E0.00766
G1 X104.560 Y104.286 E0.00766
G1 X104.645 Y104.515 E0.00766
G1 X104.697 Y104.754 E0.00766
G1 X104.714 Y104.998 E0.00766
G1 X104.697 Y105.241 E0.00766
G1 X104.645 Y105.480 E0.00766
G1 X104.560 Y105.709 E0.00766
G1 X104.442 Y105.924 E0.00766
G1 X104.296 Y106.119 E0.00766
G1 X104.120 Y106.296 E0.00782
G1 X103.892 Y106.450 E0.00861
G1 X103.835 Y106.870 F7200.000
G1 F5760
G1 X103.489 Y106.640 E-0.15449
G1 F5760
G1 X103.245 Y106.693 E-0.08643
G1 F5760
G1 X103.001 Y106.711 E-0.08466
G1 F5760
G1 X102.757 Y106.693 E-0.08466
G1 F5760
G1 X102.519 Y106.641 E-0.08466
G1 F5760
G1 X102.290 Y106.556 E-0.08466
G1 F5760
G1 X102.075 Y106.439 E-0.08466
G1 F5760
G1 X101.879 Y106.292 E-0.08466
G1 F5760
G1 X101.857 Y106.270 E-0.01111
G1 E-0.04000 F2100.00000
G1 Z0.800 F7200.000
G1 X104.991 Y101.399 F7200.000
G1 Z0.200 F7200.000
G1 E0.80000 F2100.00000
G1 F1800
G1 X104.755 Y101.347 E0.00757
G1 X104.476 Y101.243 E0.00936
G1 X104.214 Y101.100 E0.00936
G1 X103.964 Y100.913 E0.00979
G1 X103.674 Y100.594 E0.01350
G1 X103.447 Y100.223 E0.01365
G1 X103.338 Y99.930 E0.00980
G1 X103.274 Y99.638 E0.00936
G1 X103.253 Y99.341 E0.00936
G1 X103.274 Y99.043 E0.00936
G1 X103.338 Y98.752 E0.00936
G1 X103.442 Y98.472 E0.00936
G1 X103.585 Y98.210 E0.00936
G1 X103.764 Y97.971 E0.00936
G1 X103.975 Y97.760 E0.00936
G1 X104.214 Y97.581 E0.00936
G1 X104.476 Y97.438 E0.00936
G1 X104.768 Y97.329 E0.00979
G1 X105.193 Y97.258 E0.01350
G1 X105.628 Y97.268 E0.01365
G1 X105.934 Y97.334 E0.00980
G1 X106.213 Y97.438 E0.00936
G1 X106.475 Y97.581 E0.00936
G1 X106.714 Y97.760 E0.00936
G1 X106.925 Y97.971 E0.00936
G1 X107.104 Y98.210 E0.00936
G1 X107.247 Y98.472 E0.00936
G1 X107.351 Y98.752 E0.00936
G1 X107.414 Y99.043 E0.00936
G1 X107.436 Y99.341 E0.00936
G1 X107.414 Y99.638 E0.00936
G1 X107.351 Y99.930 E0.00936
G1 X107.247 Y100.209 E0.00936
G1 X107.104 Y100.471 E0.00936
G1 X106.925 Y100.710 E0.00936
G1 X106.714 Y100.921 E0.00936
G1 X106.475 Y101.100 E0.00936
G1 X106.213 Y101.243 E0.00936
G1 X105.934 Y101.347 E0.00936
G1 X105.642 Y101.411 E0.00936
G1 X105.344 Y101.432 E0.00936
G1 X105.050 Y101.411 E0.00926
G1 X105.101 Y101.036 F7200.000
G1 F1800
G1 X104.862 Y100.984 E0.00766
G1 X104.633 Y100.899 E0.00766
G1 X104.418 Y100.782 E0.00766
G1 X104.218 Y100.632 E0.00782
G1 X103.977 Y100.367 E0.01125
G1 X103.788 Y100.057 E0.01139
G1 X103.701 Y99.823 E0.00782
G1 X103.649 Y99.584 E0.00766
G1 X103.631 Y99.341 E0.00766
G1 X103.649 Y99.097 E0.00766
G1 X103.701 Y98.858 E0.00766
G1 X103.786 Y98.629 E0.00766
G1 X103.903 Y98.414 E0.00766
G1 X104.050 Y98.219 E0.00766
G1 X104.222 Y98.046 E0.00766
G1 X104.418 Y97.899 E0.00766
G1 X104.633 Y97.782 E0.00766
G1 X104.866 Y97.695 E0.00782
G1 X105.220 Y97.635 E0.01125
G1 X105.583 Y97.644 E0.01139
G1 X105.827 Y97.697 E0.00782
G1 X106.056 Y97.782 E0.00766
G1 X106.271 Y97.899 E0.00766
G1 X106.466 Y98.046 E0.00766
G1 X106.639 Y98.219 E0.00766
G1 X106.786 Y98.414 E0.00766
G1 X106.903 Y98.629 E0.00766
G1 X106.988 Y98.858 E0.00766
G1 X107.040 Y99.097 E0.00766
G1 X107.058 Y99.341 E0.00766
G1 X107.040 Y99.584 E0.00766
G1 X106.988 Y99.823 E0.00766
G1 X106.903 Y100.052 E0.00766
G1 X106.786 Y100.267 E0.00766
G1 X106.639 Y100.463 E0.00766
G1 X106.466 Y100.635 E0.00766
G1 X106.271 Y100.782 E0.00766
G1 X106.056 Y100.899 E0.00766
G1 X105.827 Y100.984 E0.00766
G1 X105.588 Y101.036 E0.00766
G1 X105.344 Y101.054 E0.00766
G1 X105.160 Y101.041 E0.00578
G1 X104.949 Y101.229 F7200.000
G1 F5760
G1 X104.862 Y100.984 E-0.10527
G1 F5760
G1 X104.633 Y100.899 E-0.08466
G1 F5760
G1 X104.418 Y100.782 E-0.08466
G1 F5760
G1 X104.218 Y100.632 E-0.08638
G1 F5760
G1 X103.977 Y100.367 E-0.12422
G1 F5760
G1 X103.788 Y100.057 E-0.12583
G1 F5760
G1 X103.701 Y99.823 E-0.08643
G1 F5760
G1 X103.662 Y99.647 E-0.06254
G1 E-0.04000 F2100.00000
G1 Z0.800 F7200.000
G1 X106.466 Y101.644 F7200.000
G1 Z0.200 F7200.000
G1 E0.80000 F2100.00000
G1 F1800
G1 X106.767 Y101.271 E0.01501
G1 X107.098 Y100.926 E0.01501
G1 X107.458 Y100.609 E0.01501
G1 X107.843 Y100.325 E0.01501
G1 X108.250 Y100.073 E0.01501
G1 X108.678 Y99.858 E0.01501
G1 X109.122 Y99.679 E0.01501
G1 X109.580 Y99.539 E0.01501
G1 X110.056 Y99.437 E0.01527
G1 X110.755 Y99.367 E0.02203
G1 X111.471 Y99.376 E0.02245
G1 X111.954 Y99.438 E0.01528
G1 X112.422 Y99.539 E0.01501
G1 X112.880 Y99.679 E0.01501
G1 X113.324 Y99.858 E0.01501
G1 X113.752 Y100.073 E0.01501
G1 X114.160 Y100.325 E0.01501
G1 X114.545 Y100.609 E0.01501
G1 X114.904 Y100.926 E0.01501
G1 X115.235 Y101.271 E0.01501
G1 X115.536 Y101.644 E0.01501
G1 X115.804 Y102.040 E0.01501
G1 X116.038 Y102.458 E0.01501
G1 X116.235 Y102.895 E0.01501
G1 X116.394 Y103.346 E0.01501
G1 X116.515 Y103.809 E0.01501
G1 X116.596 Y104.281 E0.01501
G1 X116.636 Y104.757 E0.01497
G1 X116.636 Y105.238 E0.01509
G1 X116.596 Y105.714 E0.01497
G1 X116.515 Y106.186 E0.01501
G1 X116.394 Y106.649 E0.01501
G1 X116.235 Y107.101 E0.01501
G1 X116.038 Y107.537 E0.01501
G1 X115.804 Y107.955 E0.01501
G1 X115.536 Y108.351 E0.01501
G1 X115.235 Y108.724 E0.01501
G1 X114.904 Y109.070 E0.01501
G1 X114.545 Y109.386 E0.01501
G1 X114.160 Y109.671 E0.01501
G1 X113.752 Y109.922 E0.01501
G1 X113.324 Y110.137 E0.01501
